( Made using CamBam - http://www.cambam.co.uk )
( LedDriverTLC59711_02 3/23/2023 3:47:30 PM )
( Post processor: Default )
( T1 : 0.8 )
( T2 : 1.0 )
G21 G90 G64 G40
G0 Z3.0
( T1 : 0.8 )
T1 M6
( Drill1 )
G17
M3 S1000
G0 X125.16 Y15.34
G98
G81 X125.16 Y15.34 Z-1.8 R3.0 F300.0
G81 X114.43 Y9.25 Z-1.8
G81 X107.36 Y12.91 Z-1.8
G81 X104.82 Z-1.8
G81 X103.57 Y15.37 Z-1.8
G81 X104.27 Y9.25 Z-1.8
G81 X90.01 Y12.94 Z-1.8
G81 Y15.48 Z-1.8
G81 X82.39 Z-1.8
G81 Y12.94 Z-1.8
G81 X65.09 Y3.65 Z-1.8
G81 X47.59 Y13.07 Z-1.8
G81 Y15.61 Z-1.8
G81 X39.97 Z-1.8
G81 Y13.07 Z-1.8
G81 X26.41 Y13.18 Z-1.8
G81 X25.16 Y15.64 Z-1.8
G81 X22.62 Z-1.8
G81 X25.71 Y19.3 Z-1.8
G81 X15.55 Z-1.8
G81 X4.82 Y13.06 Z-1.8
G81 X4.76 Y33.47 Z-1.8
G81 X15.48 Y39.56 Z-1.8
G81 X22.56 Y35.89 Z-1.8
G81 X25.1 Z-1.8
G81 X26.35 Y33.44 Z-1.8
G81 X25.64 Y39.56 Z-1.8
G81 X26.41 Y53.7 Z-1.8
G81 X25.16 Y56.15 Z-1.8
G81 X22.62 Z-1.8
G81 X25.71 Y59.81 Z-1.8
G81 X15.55 Z-1.8
G81 X4.82 Y53.57 Z-1.8
G81 X4.76 Y73.95 Z-1.8
G81 X15.48 Y80.2 Z-1.8
G81 X22.56 Y76.53 Z-1.8
G81 X25.1 Z-1.8
G81 X26.35 Y74.08 Z-1.8
G81 X25.64 Y80.2 Z-1.8
G81 X26.41 Y94.4 Z-1.8
G81 X25.16 Y96.85 Z-1.8
G81 X22.62 Z-1.8
G81 X25.71 Y100.52 Z-1.8
G81 X15.55 Z-1.8
G81 X4.82 Y94.27 Z-1.8
G81 X4.79 Y114.67 Z-1.8
G81 X15.52 Y120.9 Z-1.8
G81 X22.59 Y117.24 Z-1.8
G81 X25.13 Z-1.8
G81 X26.38 Y114.78 Z-1.8
G81 X25.68 Y120.9 Z-1.8
G81 X39.93 Y117.21 Z-1.8
G81 Y114.67 Z-1.8
G81 X47.55 Z-1.8
G81 Y117.21 Z-1.8
G81 X47.59 Y96.83 Z-1.8
G81 Y94.29 Z-1.8
G81 X39.97 Z-1.8
G81 Y96.83 Z-1.8
G81 X40.22 Y76.51 Z-1.8
G81 Y73.97 Z-1.8
G81 X47.84 Z-1.8
G81 Y76.51 Z-1.8
G81 X47.59 Y56.12 Z-1.8
G81 Y53.58 Z-1.8
G81 X39.97 Z-1.8
G81 Y56.12 Z-1.8
G81 X39.9 Y35.87 Z-1.8
G81 Y33.33 Z-1.8
G81 X47.52 Z-1.8
G81 Y35.87 Z-1.8
G81 X82.36 Y35.86 Z-1.8
G81 Y33.32 Z-1.8
G81 X89.98 Z-1.8
G81 Y35.86 Z-1.8
G81 X103.54 Y35.75 Z-1.8
G81 X104.79 Y33.3 Z-1.8
G81 X107.33 Z-1.8
G81 X104.24 Y29.64 Z-1.8
G81 X114.4 Z-1.8
G81 X125.13 Y35.72 Z-1.8
G81 X114.46 Y49.96 Z-1.8
G81 X107.39 Y53.62 Z-1.8
G81 X104.85 Z-1.8
G81 X103.6 Y56.07 Z-1.8
G81 X104.3 Y49.96 Z-1.8
G81 X90.05 Y53.64 Z-1.8
G81 Y56.18 Z-1.8
G81 X82.43 Z-1.8
G81 Y53.64 Z-1.8
G81 X82.36 Y74.03 Z-1.8
G81 Y76.57 Z-1.8
G81 X89.98 Z-1.8
G81 Y74.03 Z-1.8
G81 X103.54 Y76.46 Z-1.8
G81 X104.79 Y74.0 Z-1.8
G81 X107.33 Z-1.8
G81 X104.24 Y70.34 Z-1.8
G81 X114.4 Z-1.8
G81 X125.13 Y76.42 Z-1.8
G81 X114.46 Y90.6 Z-1.8
G81 X107.39 Y94.26 Z-1.8
G81 X104.85 Z-1.8
G81 X103.6 Y96.71 Z-1.8
G81 X104.3 Y90.6 Z-1.8
G81 X90.05 Y94.28 Z-1.8
G81 Y96.82 Z-1.8
G81 X82.43 Z-1.8
G81 Y94.28 Z-1.8
G81 X82.36 Y114.54 Z-1.8
G81 Y117.08 Z-1.8
G81 X89.98 Z-1.8
G81 Y114.54 Z-1.8
G81 X103.54 Y116.97 Z-1.8
G81 X104.79 Y114.51 Z-1.8
G81 X107.33 Z-1.8
G81 X104.24 Y110.85 Z-1.8
G81 X114.4 Z-1.8
G81 X125.13 Y116.78 Z-1.8
G81 X125.19 Y96.52 Z-1.8
G81 Y56.2 Z-1.8
G81 X124.78 Y145.42 Z-1.8
G81 X5.08 Z-1.8
G80
( Drill2 )
G0 Z3.0
( T2 : 1.0 )
T2 M6
M3 S1000
G0 X125.16 Y5.36
G98
G81 X125.16 Y5.36 Z-1.8 R3.0 F300.0
G81 Y10.44 Z-1.8
G81 X122.71 Y19.5 Z-1.8
G81 X120.17 Z-1.8
G81 X125.13 Y25.75 Z-1.8
G81 Y30.83 Z-1.8
G81 X122.71 Y39.89 Z-1.8
G81 X120.17 Z-1.8
G81 X125.19 Y46.07 Z-1.8
G81 Y51.15 Z-1.8
G81 X122.79 Y60.38 Z-1.8
G81 X120.25 Z-1.8
G81 X125.13 Y66.45 Z-1.8
G81 Y71.53 Z-1.8
G81 X122.63 Y80.51 Z-1.8
G81 X120.09 Z-1.8
G81 X125.19 Y86.71 Z-1.8
G81 Y91.79 Z-1.8
G81 X122.79 Y101.02 Z-1.8
G81 X120.25 Z-1.8
G81 X125.13 Y106.96 Z-1.8
G81 Y112.04 Z-1.8
G81 X122.63 Y121.02 Z-1.8
G81 X120.09 Z-1.8
G81 X115.89 Y123.19 Z-1.8
G81 Y133.35 Z-1.8
G81 X115.88 Y137.29 Z-1.8
G81 X120.96 Y140.47 Z-1.8
G81 X115.88 Y143.96 Z-1.8
G81 X98.9 Y119.54 Z-1.8
G81 Y117.0 Z-1.8
G81 Y114.46 Z-1.8
G81 X98.97 Y99.29 Z-1.8
G81 Y96.75 Z-1.8
G81 Y94.21 Z-1.8
G81 X98.9 Y79.03 Z-1.8
G81 Y76.49 Z-1.8
G81 Y73.95 Z-1.8
G81 X98.97 Y58.65 Z-1.8
G81 Y56.11 Z-1.8
G81 Y53.57 Z-1.8
G81 X98.9 Y38.33 Z-1.8
G81 Y35.79 Z-1.8
G81 Y33.25 Z-1.8
G81 X98.93 Y17.94 Z-1.8
G81 Y15.4 Z-1.8
G81 Y12.86 Z-1.8
G81 X82.16 Y60.05 Z-1.8
G81 Y62.59 Z-1.8
G81 Y65.13 Z-1.8
G81 Y67.67 Z-1.8
G81 Y70.21 Z-1.8
G81 X77.61 Y70.16 Z-1.8
G81 Y67.62 Z-1.8
G81 Y65.08 Z-1.8
G81 Y62.54 Z-1.8
G81 Y60.0 Z-1.8
G81 X72.53 Y57.62 Z-1.8
G81 X69.99 Z-1.8
G81 X67.45 Z-1.8
G81 X62.37 Z-1.8
G81 X59.83 Z-1.8
G81 X57.29 Z-1.8
G81 X52.21 Y60.0 Z-1.8
G81 Y62.54 Z-1.8
G81 Y65.08 Z-1.8
G81 Y67.62 Z-1.8
G81 Y70.16 Z-1.8
G81 X47.56 Y70.21 Z-1.8
G81 Y67.67 Z-1.8
G81 Y65.13 Z-1.8
G81 Y62.59 Z-1.8
G81 Y60.05 Z-1.8
G81 X57.29 Y72.7 Z-1.8
G81 X59.83 Z-1.8
G81 X62.37 Z-1.8
G81 X67.45 Z-1.8
G81 X69.99 Z-1.8
G81 X72.53 Z-1.8
G81 X30.98 Y71.5 Z-1.8
G81 Y74.04 Z-1.8
G81 Y76.58 Z-1.8
G81 X31.04 Y91.82 Z-1.8
G81 Y94.36 Z-1.8
G81 Y96.9 Z-1.8
G81 X31.01 Y112.21 Z-1.8
G81 Y114.75 Z-1.8
G81 Y117.29 Z-1.8
G81 X20.89 Y133.64 Z-1.8
G81 X15.81 Z-1.8
G81 X4.79 Y124.79 Z-1.8
G81 Y119.71 Z-1.8
G81 X7.24 Y110.65 Z-1.8
G81 X9.78 Z-1.8
G81 X4.82 Y104.4 Z-1.8
G81 Y99.32 Z-1.8
G81 X7.24 Y90.27 Z-1.8
G81 X9.78 Z-1.8
G81 X4.76 Y84.08 Z-1.8
G81 Y79.0 Z-1.8
G81 X7.16 Y69.77 Z-1.8
G81 X9.7 Z-1.8
G81 X4.82 Y63.7 Z-1.8
G81 Y58.62 Z-1.8
G81 X7.32 Y49.64 Z-1.8
G81 X9.86 Z-1.8
G81 X4.76 Y43.44 Z-1.8
G81 Y38.36 Z-1.8
G81 X7.16 Y29.13 Z-1.8
G81 X9.7 Z-1.8
G81 X4.82 Y23.19 Z-1.8
G81 Y18.11 Z-1.8
G81 X7.32 Y9.13 Z-1.8
G81 X9.86 Z-1.8
G81 X31.04 Y10.61 Z-1.8
G81 Y13.15 Z-1.8
G81 Y15.69 Z-1.8
G81 X30.98 Y30.86 Z-1.8
G81 Y33.4 Z-1.8
G81 Y35.94 Z-1.8
G81 X31.04 Y51.12 Z-1.8
G81 Y53.66 Z-1.8
G81 Y56.2 Z-1.8
G80
G0 Z3.0
G21 G90 G64 G40
G0 Z3.0
( T10 : 0.5 )
T10 M6
( tracks )
G17
M3 S1000
G0 X3.5877 Y113.7216
G0 Z1.0
G1 F300.0 Z-0.4
G1 Y113.5444
G1 Y113.1
G3 X3.9392 Y112.2515 I1.2 J0.0
G1 X5.989 Y110.2017
G1 Y109.6488
G3 X6.239 Y109.3988 I0.25 J0.0
G1 X8.239
G3 X8.489 Y109.6488 I0.0 J0.25
G1 Y111.6488
G3 X8.239 Y111.8988 I-0.25 J0.0
G1 X7.686
G1 X5.9877 Y113.5971
G1 Y113.7216
G1 Y115.6216
G1 Y117.9572
G1 X6.288
G3 X6.538 Y118.2072 I0.0 J0.25
G1 Y121.2072
G3 X6.288 Y121.4572 I-0.25 J0.0
G1 X3.288
G3 X3.038 Y121.2072 I0.0 J-0.25
G1 Y118.2072
G3 X3.288 Y117.9572 I0.25 J0.0
G1 X3.5877
G1 Y115.6216
G1 Y113.7216
G0 Z3.0
G0 X8.5468 Y111.7415
G0 Z1.0
G1 Z-0.4
G3 X8.529 Y111.6488 I0.2322 J-0.0927
G1 Y109.6488
G3 X8.779 Y109.3988 I0.25 J0.0
G1 X10.779
G3 X10.929 Y109.4488 I0.0 J0.25
G1 X11.8152
G1 Y105.6033
G1 X6.5694
G1 Y105.9033
G3 X6.3194 Y106.1533 I-0.25 J0.0
G1 X3.3194
G3 X3.0694 Y105.9033 I0.0 J-0.25
G1 Y102.9033
G3 X3.3194 Y102.6533 I0.25 J0.0
G1 X6.3194
G3 X6.5694 Y102.9033 I0.0 J0.25
G1 Y103.2033
G1 X11.8152
G1 Y91.4652
G1 X10.929
G3 X10.779 Y91.5152 I-0.15 J-0.2
G1 X8.779
G3 X8.529 Y91.2652 I0.0 J-0.25
G1 Y89.2652
G3 X8.779 Y89.0152 I0.25 J0.0
G1 X10.779
G3 X10.929 Y89.0652 I0.0 J0.25
G1 X11.8152
G1 Y85.2833
G1 X6.506
G1 Y85.5833
G3 X6.256 Y85.8333 I-0.25 J0.0
G1 X3.256
G3 X3.006 Y85.5833 I0.0 J-0.25
G1 Y82.5833
G3 X3.256 Y82.3333 I0.25 J0.0
G1 X6.256
G3 X6.506 Y82.5833 I0.0 J0.25
G1 Y82.8833
G1 X11.8152
G1 Y70.9706
G1 X10.8496
G3 X10.6996 Y71.0206 I-0.15 J-0.2
G1 X8.6996
G3 X8.4496 Y70.7706 I0.0 J-0.25
G1 Y68.7706
G3 X8.6996 Y68.5206 I0.25 J0.0
G1 X10.6996
G3 X10.8496 Y68.5706 I0.0 J0.25
G1 X11.8152
G1 Y64.8998
G1 X6.5694
G1 Y65.1998
G3 X6.3194 Y65.4498 I-0.25 J0.0
G1 X3.3194
G3 X3.0694 Y65.1998 I0.0 J-0.25
G1 Y62.1998
G3 X3.3194 Y61.9498 I0.25 J0.0
G1 X6.3194
G3 X6.5694 Y62.1998 I0.0 J0.25
G1 Y62.4998
G1 X11.8152
G1 Y50.8411
G1 X11.0084
G3 X10.8584 Y50.8911 I-0.15 J-0.2
G1 X8.8584
G3 X8.6084 Y50.6411 I0.0 J-0.25
G1 Y48.6411
G3 X8.8584 Y48.3911 I0.25 J0.0
G1 X10.8584
G3 X11.0084 Y48.4411 I0.0 J0.25
G1 X11.8152
G1 Y44.6433
G1 X6.506
G1 Y44.9433
G3 X6.256 Y45.1933 I-0.25 J0.0
G1 X3.256
G3 X3.006 Y44.9433 I0.0 J-0.25
G1 Y41.9433
G3 X3.256 Y41.6933 I0.25 J0.0
G1 X6.256
G3 X6.506 Y41.9433 I0.0 J0.25
G1 Y42.2433
G1 X11.8152
G1 Y30.3306
G1 X10.8496
G3 X10.6996 Y30.3806 I-0.15 J-0.2
G1 X8.6996
G3 X8.4496 Y30.1306 I0.0 J-0.25
G1 Y28.1306
G3 X8.6996 Y27.8806 I0.25 J0.0
G1 X10.6996
G3 X10.8496 Y27.9306 I0.0 J0.25
G1 X11.8152
G1 Y24.3868
G1 X6.5694
G1 Y24.6868
G3 X6.3194 Y24.9368 I-0.25 J0.0
G1 X3.3194
G3 X3.0694 Y24.6868 I0.0 J-0.25
G1 Y21.6868
G3 X3.3194 Y21.4368 I0.25 J0.0
G1 X6.3194
G3 X6.5694 Y21.6868 I0.0 J0.25
G1 Y21.9868
G1 X11.8152
G1 Y10.3281
G1 X11.0084
G3 X10.8584 Y10.3781 I-0.15 J-0.2
G1 X8.8584
G3 X8.6084 Y10.1281 I0.0 J-0.25
G1 Y8.1281
G3 X8.8584 Y7.8781 I0.25 J0.0
G1 X10.8584
G3 X11.0084 Y7.9281 I0.0 J0.25
G1 X11.8152
G1 Y3.6512
G1 Y1.6512
G3 X12.0652 Y1.4012 I0.25 J0.0
G1 X13.394
G3 X14.224 Y1.2425 I0.83 J2.0913
G1 X56.9912
G3 X58.9074 Y2.3133 I0.0 J2.25
G1 X62.0585 Y7.4338
G1 X67.8078
G1 X71.9187 Y2.2321
G3 X73.684 Y1.3772 I1.7653 J1.3951
G1 X115.8816
G1 X117.8816 Y1.3771
G3 X118.1316 Y1.6271 I0.0 J0.25
G1 X118.1317 Y3.6271
G1 Y4.1642
G1 X123.4093
G1 Y3.8642
G3 X123.6593 Y3.6142 I0.25 J0.0
G1 X126.6593
G3 X126.9093 Y3.8642 I0.0 J0.25
G1 Y6.8642
G3 X126.6593 Y7.1142 I-0.25 J0.0
G1 X123.6593
G3 X123.4093 Y6.8642 I0.0 J-0.25
G1 Y6.5642
G1 X118.1318
G1 X118.1324 Y18.2212
G3 X118.304 Y18.3022 I-0.425 J1.1222
G1 X119.018
G3 X119.168 Y18.2522 I0.15 J0.2
G1 X121.168
G3 X121.418 Y18.5022 I0.0 J0.25
G1 Y20.5022
G3 X121.168 Y20.7522 I-0.25 J0.0
G1 X119.168
G3 X119.018 Y20.7022 I0.0 J-0.25
G1 X118.1326
G1 X118.1328 Y24.5477
G1 X123.3775
G1 Y24.2477
G3 X123.6275 Y23.9977 I0.25 J0.0
G1 X126.6275
G3 X126.8775 Y24.2477 I0.0 J0.25
G1 Y27.2477
G3 X126.6275 Y27.4977 I-0.25 J0.0
G1 X123.6275
G3 X123.3775 Y27.2477 I0.0 J-0.25
G1 Y26.9477
G1 X118.1329
G1 X118.1335 Y38.6857
G1 X119.018
G3 X119.168 Y38.6357 I0.15 J0.2
G1 X121.168
G3 X121.418 Y38.8857 I0.0 J0.25
G1 Y40.8857
G3 X121.168 Y41.1357 I-0.25 J0.0
G1 X119.168
G3 X119.018 Y41.0857 I0.0 J-0.25
G1 X118.1336
G1 X118.1338 Y44.8677
G1 X123.441
G1 Y44.5677
G3 X123.691 Y44.3177 I0.25 J0.0
G1 X126.691
G3 X126.941 Y44.5677 I0.0 J0.25
G1 Y47.5677
G3 X126.691 Y47.8177 I-0.25 J0.0
G1 X123.691
G3 X123.441 Y47.5677 I0.0 J-0.25
G1 Y47.2677
G1 X118.1339
G1 X118.1345 Y59.1803
G1 X119.0974
G3 X119.2474 Y59.1303 I0.15 J0.2
G1 X121.2474
G3 X121.4974 Y59.3803 I0.0 J0.25
G1 Y61.3803
G3 X121.2474 Y61.6303 I-0.25 J0.0
G1 X119.2474
G3 X119.0974 Y61.5803 I0.0 J-0.25
G1 X118.1347
G1 X118.1348 Y65.2512
G1 X123.3775
G1 Y64.9512
G3 X123.6275 Y64.7012 I0.25 J0.0
G1 X126.6275
G3 X126.8775 Y64.9512 I0.0 J0.25
G1 Y67.9512
G3 X126.6275 Y68.2012 I-0.25 J0.0
G1 X123.6275
G3 X123.3775 Y67.9512 I0.0 J-0.25
G1 Y67.6512
G1 X118.135
G1 X118.1356 Y79.3098
G1 X118.9386
G3 X119.0886 Y79.2598 I0.15 J0.2
G1 X121.0886
G3 X121.3386 Y79.5098 I0.0 J0.25
G1 Y81.5098
G3 X121.0886 Y81.7598 I-0.25 J0.0
G1 X119.0886
G3 X118.9386 Y81.7098 I0.0 J-0.25
G1 X118.1357
G1 X118.1359 Y85.5077
G1 X123.441
G1 Y85.2077
G3 X123.691 Y84.9577 I0.25 J0.0
G1 X126.691
G3 X126.941 Y85.2077 I0.0 J0.25
G1 Y88.2077
G3 X126.691 Y88.4577 I-0.25 J0.0
G1 X123.691
G3 X123.441 Y88.2077 I0.0 J-0.25
G1 Y87.9077
G1 X118.136
G1 X118.1366 Y99.8203
G1 X119.0974
G3 X119.2474 Y99.7703 I0.15 J0.2
G1 X121.2474
G3 X121.4974 Y100.0203 I0.0 J0.25
G1 Y102.0203
G3 X121.2474 Y102.2703 I-0.25 J0.0
G1 X119.2474
G3 X119.0974 Y102.2203 I0.0 J-0.25
G1 X118.1367
G1 X118.1369 Y105.7642
G1 X123.3775
G1 Y105.4642
G3 X123.6275 Y105.2142 I0.25 J0.0
G1 X126.6275
G3 X126.8775 Y105.4642 I0.0 J0.25
G1 Y108.4642
G3 X126.6275 Y108.7142 I-0.25 J0.0
G1 X123.6275
G3 X123.3775 Y108.4642 I0.0 J-0.25
G1 Y108.1642
G1 X118.137
G1 X118.1376 Y119.8228
G1 X118.9386
G3 X119.0886 Y119.7728 I0.15 J0.2
G1 X121.0886
G3 X121.3386 Y120.0228 I0.0 J0.25
G1 Y122.0228
G3 X121.0886 Y122.2728 I-0.25 J0.0
G1 X119.0886
G3 X118.9386 Y122.2228 I0.0 J-0.25
G1 X118.1378
G1 Y123.1903
G1 X118.1379 Y125.1903
G3 X117.8879 Y125.4403 I-0.25 J0.0
G1 X115.8879 Y125.4404
G1 X113.8879 Y125.4405
G3 X113.6379 Y125.1905 I0.0 J-0.25
G1 X113.6378 Y123.1905
G1 X113.6372 Y112.102
G1 X113.3985
G3 X113.1485 Y111.852 I0.0 J-0.25
G1 Y109.852
G3 X113.3985 Y109.602 I0.25 J0.0
G1 X113.6371
G1 X113.6362 Y91.8455
G1 X113.462
G3 X113.212 Y91.5955 I0.0 J-0.25
G1 Y89.5955
G3 X113.462 Y89.3455 I0.25 J0.0
G1 X113.6361
G1 X113.6352 Y71.589
G1 X113.3985
G3 X113.1485 Y71.339 I0.0 J-0.25
G1 Y69.339
G3 X113.3985 Y69.089 I0.25 J0.0
G1 X113.635
G1 X113.6341 Y51.2055
G1 X113.462
G3 X113.212 Y50.9555 I0.0 J-0.25
G1 Y48.9555
G3 X113.462 Y48.7055 I0.25 J0.0
G1 X113.634
G1 X113.6331 Y30.8855
G1 X113.3985
G3 X113.1485 Y30.6355 I0.0 J-0.25
G1 Y28.6355
G3 X113.3985 Y28.3855 I0.25 J0.0
G1 X113.633
G1 X113.6321 Y10.502
G1 X113.4303
G3 X113.1803 Y10.252 I0.0 J-0.25
G1 Y8.252
G3 X113.4303 Y8.002 I0.25 J0.0
G1 X113.6319
G1 X113.6318 Y5.8772
G1 X74.7737
G1 X70.6628 Y11.0789
G3 X68.8975 Y11.9338 I-1.7653 J-1.3951
G1 X60.8012
G3 X58.885 Y10.863 I0.0 J-2.25
G1 X55.7339 Y5.7425
G1 X16.3152
G1 Y18.049
G1 X16.5485
G3 X16.7985 Y18.299 I0.0 J0.25
G1 Y20.299
G3 X16.5485 Y20.549 I-0.25 J0.0
G1 X16.3152
G1 Y38.3054
G1 X16.485
G3 X16.735 Y38.5554 I0.0 J0.25
G1 Y40.5554
G3 X16.485 Y40.8054 I-0.25 J0.0
G1 X16.3152
G1 Y58.562
G1 X16.5485
G3 X16.7985 Y58.812 I0.0 J0.25
G1 Y60.812
G3 X16.5485 Y61.062 I-0.25 J0.0
G1 X16.3152
G1 Y78.9455
G1 X16.485
G3 X16.735 Y79.1955 I0.0 J0.25
G1 Y81.1955
G3 X16.485 Y81.4455 I-0.25 J0.0
G1 X16.3152
G1 Y99.2655
G1 X16.5485
G3 X16.7985 Y99.5155 I0.0 J0.25
G1 Y101.5155
G3 X16.5485 Y101.7655 I-0.25 J0.0
G1 X16.3152
G1 Y119.649
G1 X16.5167
G3 X16.7667 Y119.899 I0.0 J0.25
G1 Y121.899
G3 X16.5167 Y122.149 I-0.25 J0.0
G1 X16.3152
G1 Y129.3812
G1 Y130.9575
G1 X17.2434 Y131.8857
G1 X17.3114
G3 X17.5614 Y132.1357 I0.0 J0.25
G1 Y132.2215
G3 Y135.0499 I-1.75 J1.4142
G1 Y135.1357
G3 X17.3114 Y135.3857 I-0.25 J0.0
G1 X17.2256
G3 X14.3972 I-1.4142 J-1.75
G1 X14.3114
G3 X14.0614 Y135.1357 I0.0 J-0.25
G1 Y135.0677
G1 X12.4742 Y133.4805
G3 X11.8152 Y131.8895 I1.591 J-1.591
G1 Y129.3812
G1 Y125.9868
G1 X6.538
G1 Y126.2872
G3 X6.288 Y126.5372 I-0.25 J0.0
G1 X3.288
G3 X3.038 Y126.2872 I0.0 J-0.25
G1 Y123.2872
G3 X3.288 Y123.0372 I0.25 J0.0
G1 X6.288
G3 X6.538 Y123.2872 I0.0 J0.25
G1 Y123.5868
G1 X11.8152
G1 Y111.9299
G3 X11.6432 Y111.8488 I0.4244 J-1.1224
G1 X10.929
G3 X10.779 Y111.8988 I-0.15 J-0.2
G1 X8.779
G3 X8.5468 Y111.7415 I0.0 J-0.25
G0 Z3.0
G0 X19.2406 Y111.7236
G0 Z1.0
G1 Z-0.4
G1 X19.0701 Y9.7352
G3 X23.5467 Y9.4078 I2.25 J-0.0038
G1 X29.1449
G1 X31.0449
G1 X32.9449
G3 X33.1949 Y9.6578 I0.0 J0.25
G1 Y11.5578
G3 X32.9449 Y11.8078 I-0.25 J0.0
G1 X31.0449
G1 X29.1449
G1 X23.5736
G1 X23.5781 Y14.4932
G3 X23.7718 Y14.7368 I-0.0563 J0.2436
G1 Y16.5368
G3 X23.5819 Y16.7795 I-0.25 J0.0
G1 X23.6034 Y29.6644
G1 X29.0814
G1 X30.9814
G1 X32.8814
G3 X33.1314 Y29.9144 I0.0 J0.25
G1 Y31.8144
G3 X32.8814 Y32.0644 I-0.25 J0.0
G1 X30.9814
G1 X29.0814
G1 X23.6074
G1 X23.612 Y34.7961
G3 X23.7083 Y34.9933 I-0.1537 J0.1972
G1 Y36.7933
G3 X23.6157 Y36.9876 I-0.25 J0.0
G1 X23.6373 Y49.9208
G1 X29.1449
G1 X31.0449
G1 X32.9449
G3 X33.1949 Y50.1708 I0.0 J0.25
G1 Y52.0708
G3 X32.9449 Y52.3208 I-0.25 J0.0
G1 X31.0449
G1 X29.1449
G1 X23.6413
G1 X23.6458 Y55.0327
G3 X23.7718 Y55.2498 I-0.124 J0.2171
G1 Y57.0498
G3 X23.6496 Y57.2647 I-0.25 J0.0
G1 X23.6713 Y70.3044
G1 X29.0814
G1 X30.9814
G1 X32.8814
G3 X33.1314 Y70.5544 I0.0 J0.25
G1 Y72.4544
G3 X32.8814 Y72.7044 I-0.25 J0.0
G1 X30.9814
G1 X29.0814
G1 X23.6754
G1 X23.6801 Y75.5179
G3 X23.7083 Y75.6333 I-0.2218 J0.1154
G1 Y77.4333
G3 X23.6834 Y77.542 I-0.25 J0.0
G1 X23.7053 Y90.6244
G1 X29.1449
G1 X31.0449
G1 X32.9449
G3 X33.1949 Y90.8744 I0.0 J0.25
G1 Y92.7744
G3 X32.9449 Y93.0244 I-0.25 J0.0
G1 X31.0449
G1 X29.1449
G1 X23.7093
G1 X23.7139 Y95.7934
G3 X23.7718 Y95.9533 I-0.1921 J0.1599
G1 Y97.7533
G3 X23.7175 Y97.9089 I-0.25 J0.0
G1 X23.7394 Y111.0078
G1 X29.1132
G1 X31.0132
G1 X32.9132
G3 X33.1632 Y111.2578 I0.0 J0.25
G1 Y113.1578
G3 X32.9132 Y113.4078 I-0.25 J0.0
G1 X31.0132
G1 X29.1132
G1 X23.7434
G1 X23.7764 Y133.1556
G3 X23.6606 Y133.8719 I-2.25 J0.0038
G3 X23.6812 Y134.1755 I-2.2294 J0.3036
G1 Y140.5142
G1 X24.8797 Y141.7127
G1 X106.3737
G1 X106.3409 Y120.7431
G1 X100.8021
G1 X98.9021
G1 X97.0021
G3 X96.7521 Y120.4931 I0.0 J-0.25
G1 Y118.5931
G3 X97.0021 Y118.3431 I0.25 J0.0
G1 X98.9021
G1 X100.8021
G1 X106.3371
G1 X106.3329 Y115.6465
G3 X106.1752 Y115.4142 I0.0923 J-0.2323
G1 Y113.6142
G3 X106.3294 Y113.3833 I0.25 J0.0
G1 X106.3092 Y100.4866
G1 X100.8656
G1 X98.9656
G1 X97.0656
G3 X96.8156 Y100.2366 I0.0 J-0.25
G1 Y98.3366
G3 X97.0656 Y98.0866 I0.25 J0.0
G1 X98.9656
G1 X100.8656
G1 X106.3054
G1 X106.3011 Y95.3229
G3 X106.2387 Y95.1576 I0.1876 J-0.1653
G1 Y93.3576
G3 X106.2978 Y93.1962 I0.25 J0.0
G1 X106.2775 Y80.2301
G1 X100.8021
G1 X98.9021
G1 X97.0021
G3 X96.7521 Y79.9801 I0.0 J-0.25
G1 Y78.0801
G3 X97.0021 Y77.8301 I0.25 J0.0
G1 X98.9021
G1 X100.8021
G1 X106.2737
G1 X106.2695 Y75.0968
G3 X106.1752 Y74.9012 I0.1557 J-0.1956
G1 Y73.1012
G3 X106.266 Y72.9084 I0.25 J0.0
G1 X106.2456 Y59.8466
G1 X100.8656
G1 X98.9656
G1 X97.0656
G3 X96.8156 Y59.5966 I0.0 J-0.25
G1 Y57.6966
G3 X97.0656 Y57.4466 I0.25 J0.0
G1 X98.9656
G1 X100.8656
G1 X106.2418
G1 X106.2138 Y39.5266
G1 X100.8021
G1 X98.9021
G1 X97.0021
G3 X96.7521 Y39.2766 I0.0 J-0.25
G1 Y37.3766
G3 X97.0021 Y37.1266 I0.25 J0.0
G1 X98.9021
G1 X100.8021
G1 X106.21
G1 X106.2057 Y34.3172
G3 X106.1752 Y34.1976 I0.2195 J-0.1196
G1 Y32.3976
G3 X106.2025 Y32.2841 I0.25 J0.0
G1 X106.1819 Y19.1431
G1 X100.8338
G1 X98.9338
G1 X97.0338
G3 X96.7838 Y18.8931 I0.0 J-0.25
G1 Y16.9931
G3 X97.0338 Y16.7431 I0.25 J0.0
G1 X98.9338
G1 X100.8338
G1 X106.1782
G1 X106.1706 Y11.9175
G3 X110.6706 Y11.9105 I2.25 J-0.0035
G1 X110.8737 Y141.7127
G1 X114.2387
G1 X114.6654 Y141.2859
G3 X114.8422 Y141.2127 I0.1768 J0.1768
G1 X116.9172
G3 X117.094 Y141.2859 I0.0 J0.25
G1 X118.5566 Y142.7484
G3 X118.6298 Y142.9252 I-0.1768 J0.1768
G1 Y145.0002
G3 X118.5566 Y145.177 I-0.25 J0.0
G1 X117.094 Y146.6395
G3 X116.9172 Y146.7127 I-0.1768 J-0.1768
G1 X114.8422
G3 X114.6654 Y146.6395 I0.0 J-0.25
G1 X114.2387 Y146.2127
G1 X23.9477
G3 X22.3567 Y145.5537 I0.0 J-2.25
G1 X19.8402 Y143.0372
G3 X19.1812 Y141.4462 I1.591 J-1.591
G1 Y135.271
G3 X19.1414 Y135.1357 I0.2102 J-0.1353
G1 Y132.1357
G3 X19.2743 Y131.9148 I0.25 J0.0
G1 X19.2406 Y111.7236
G0 Z3.0
G0 X25.1911 Y113.752
G0 Z1.0
G1 Z-0.4
G3 X25.4277 Y113.5827 I0.2366 J0.0807
G1 X25.909
G3 X26.7536 Y113.5478 I0.4687 J1.1047
G1 X29.1132
G1 X31.0132
G1 X32.9132
G3 X33.1632 Y113.7978 I0.0 J0.25
G1 Y115.6978
G3 X32.9132 Y115.9478 I-0.25 J0.0
G1 X31.0132
G1 X29.1132
G1 X27.4551
G3 X27.3277 Y115.9827 I-0.1274 J-0.2151
G1 X25.4277
G3 X25.1777 Y115.7327 I0.0 J-0.25
G1 Y114.6874
G1 Y113.8327
G3 X25.1911 Y113.752 I0.25 J0.0
G0 Z3.0
G0 X25.1712 Y116.0371
G0 Z1.0
G1 Z-0.4
G1 X30.7263 Y116.0854
G3 X31.0642 Y116.0368 I0.3379 J1.1514
G1 X34.4755
G1 X36.6903 Y113.8221
G3 X37.5388 Y113.4706 I0.8485 J0.8485
G1 X38.3685
G3 X38.5185 Y113.4206 I0.15 J0.2
G1 X41.3485
G3 X41.5253 Y113.4938 I0.0 J0.25
G1 X42.1103 Y114.0788
G3 X42.1835 Y114.2556 I-0.1768 J0.1768
G1 Y115.0856
G3 X42.1103 Y115.2624 I-0.25 J0.0
G1 X41.5253 Y115.8474
G3 X41.3485 Y115.9206 I-0.1768 J-0.1768
G1 X38.5185
G3 X38.3685 Y115.8706 I0.0 J-0.25
G1 X38.0359
G1 X35.8211 Y118.0853
G3 X34.9726 Y118.4368 I-0.8485 J-0.8485
G1 X33.0646
G3 X32.9131 Y118.4879 I-0.1515 J-0.1989
G1 X31.0131
G1 X29.1131
G3 X29.0218 Y118.4706 I0.0 J-0.25
G1 X25.1197 Y118.4368
G3 X24.7873 Y118.3868 I0.0104 J-1.2
G1 X24.2301
G3 X23.9801 Y118.1368 I0.0 J-0.25
G1 Y117.5796
G3 Y116.894 I1.15 J-0.3428
G1 Y116.3368
G3 X24.2301 Y116.0868 I0.25 J0.0
G1 X24.7873
G3 X25.1405 Y116.0368 I0.3428 J1.15
G1 X25.1712 Y116.0371
G0 Z3.0
G0 Y119.649
G0 Z1.0
G1 Z-0.4
G1 X26.6767
G3 X26.8267 Y119.699 I0.0 J0.25
G1 X37.4808
G1 X38.5351 Y118.6447
G1 Y118.4606
G1 X38.5185
G3 X38.3417 Y118.3874 I0.0 J-0.25
G1 X37.7567 Y117.8024
G3 X37.6835 Y117.6256 I0.1768 J-0.1768
G1 Y116.7956
G3 X37.7567 Y116.6188 I0.25 J0.0
G1 X38.3417 Y116.0338
G3 X38.5185 Y115.9606 I0.1768 J0.1768
G1 X41.3485
G3 X41.5253 Y116.0338 I0.0 J0.25
G1 X42.1103 Y116.6188
G3 X42.1835 Y116.7956 I-0.1768 J0.1768
G1 Y117.6256
G3 X42.1103 Y117.8024 I-0.25 J0.0
G1 X41.5253 Y118.3874
G3 X41.3485 Y118.4606 I-0.1768 J-0.1768
G1 X40.9351
G1 Y119.1418
G3 X40.5836 Y119.9903 I-1.2 J0.0
G1 X38.8264 Y121.7475
G3 X37.9779 Y122.099 I-0.8485 J-0.8485
G1 X26.8267
G3 X26.6767 Y122.149 I-0.15 J-0.2
G1 X24.6767
G3 X24.4267 Y121.899 I0.0 J-0.25
G1 Y119.899
G3 X24.6767 Y119.649 I0.25 J0.0
G1 X25.1712
G0 Z3.0
G0 Y101.7655
G0 Z1.0
G1 Z-0.4
G1 X24.7085
G3 X24.4585 Y101.5155 I0.0 J-0.25
G1 Y99.5155
G3 X24.7085 Y99.2655 I0.25 J0.0
G1 X26.7085
G3 X26.8585 Y99.3155 I0.0 J0.25
G1 X37.5126
G1 X38.5668 Y98.2613
G1 Y98.0771
G1 X38.5502
G3 X38.3734 Y98.0039 I0.0 J-0.25
G1 X37.7884 Y97.4189
G3 X37.7152 Y97.2421 I0.1768 J-0.1768
G1 Y96.4121
G3 X37.7884 Y96.2353 I0.25 J0.0
G1 X38.3734 Y95.6503
G3 X38.5502 Y95.5771 I0.1768 J0.1768
G1 X41.3802
G3 X41.557 Y95.6503 I0.0 J0.25
G1 X42.142 Y96.2353
G3 X42.2152 Y96.4121 I-0.1768 J0.1768
G1 Y97.2421
G3 X42.142 Y97.4189 I-0.25 J0.0
G1 X41.557 Y98.0039
G3 X41.3802 Y98.0771 I-0.1768 J-0.1768
G1 X40.9668
G1 Y98.7583
G3 X40.6154 Y99.6068 I-1.2 J0.0
G1 X38.8583 Y101.364
G3 X38.0097 Y101.7155 I-0.8486 J-0.8485
G1 X26.8585
G3 X26.7085 Y101.7655 I-0.15 J-0.2
G1 X25.1712
G0 Z3.0
G0 X25.2026 Y98.1044
G0 Z1.0
G1 Z-0.4
G3 X24.7308 Y98.0033 I0.0103 J-1.2
G1 X24.2618
G3 X24.0118 Y97.7533 I0.0 J-0.25
G1 Y97.1961
G3 Y96.5105 I1.15 J-0.3428
G1 Y95.9533
G3 X24.2618 Y95.7033 I0.25 J0.0
G1 X24.819
G3 X25.5046 I0.3428 J1.15
G1 X26.0618
G3 X26.0852 Y95.7044 I0.0 J0.25
G1 X29.1449
G1 X30.7495
G3 X31.096 Y95.6533 I0.3465 J1.1489
G1 X34.5072
G1 X36.722 Y93.4386
G3 X37.5705 Y93.0871 I0.8485 J0.8485
G1 X38.4002
G3 X38.5502 Y93.0371 I0.15 J0.2
G1 X41.3802
G3 X41.557 Y93.1103 I0.0 J0.25
G1 X42.142 Y93.6953
G3 X42.2152 Y93.8721 I-0.1768 J0.1768
G1 Y94.7021
G3 X42.142 Y94.8789 I-0.25 J0.0
G1 X41.557 Y95.4639
G3 X41.3802 Y95.5371 I-0.1768 J-0.1768
G1 X38.5502
G3 X38.4002 Y95.4871 I0.0 J-0.25
G1 X38.0676
G1 X35.8528 Y97.7018
G3 X35.0043 Y98.0533 I-0.8485 J-0.8485
G1 X33.0964
G3 X32.9449 Y98.1044 I-0.1515 J-0.1989
G1 X31.0449
G1 X29.1449
G1 X25.2129
G3 X25.2026 I0.0 J-1.2
G0 Z3.0
G0 X25.4362 Y95.5981
G0 Z1.0
G1 Z-0.4
G3 X25.2094 Y95.3492 I0.0232 J-0.2489
G1 Y94.3039
G1 Y93.4492
G3 X25.4594 Y93.1992 I0.25 J0.0
G1 X25.9407
G3 X26.7856 Y93.1644 I0.4687 J1.1047
G1 X29.1449
G1 X31.0449
G1 X32.9449
G3 X33.1949 Y93.4144 I0.0 J0.25
G1 Y95.3144
G3 X32.9449 Y95.5644 I-0.25 J0.0
G1 X31.0449
G1 X29.1449
G1 X27.4866
G3 X27.3594 Y95.5992 I-0.1272 J-0.2152
G1 X25.4594
G3 X25.4362 Y95.5981 I0.0 J-0.25
G0 Z3.0
G0 Y81.4455
G0 Z1.0
G1 Z-0.4
G1 X24.645
G3 X24.395 Y81.1955 I0.0 J-0.25
G1 Y79.1955
G3 X24.645 Y78.9455 I0.25 J0.0
G1 X26.645
G3 X26.795 Y78.9955 I0.0 J0.25
G1 X37.4491
G1 X38.5033 Y77.9413
G1 Y77.5598
G1 X38.0424 Y77.0989
G3 X37.9692 Y76.9221 I0.1768 J-0.1768
G1 Y76.0921
G3 X38.0424 Y75.9153 I0.25 J0.0
G1 X38.6274 Y75.3303
G3 X38.8042 Y75.2571 I0.1768 J0.1768
G1 X41.6342
G3 X41.811 Y75.3303 I0.0 J0.25
G1 X42.396 Y75.9153
G3 X42.4692 Y76.0921 I-0.1768 J0.1768
G1 Y76.9221
G3 X42.396 Y77.0989 I-0.25 J0.0
G1 X41.811 Y77.6839
G3 X41.6342 Y77.7571 I-0.1768 J-0.1768
G1 X40.9033
G1 Y78.4383
G3 X40.5519 Y79.2868 I-1.2 J0.0
G1 X38.7948 Y81.044
G3 X37.9462 Y81.3955 I-0.8486 J-0.8485
G1 X26.795
G3 X26.645 Y81.4455 I-0.15 J-0.2
G1 X25.4362
G0 Z3.0
G0 Y77.7844
G0 Z1.0
G1 Z-0.4
G1 X25.1494
G3 X24.6673 Y77.6833 I0.0 J-1.2
G1 X24.1983
G3 X23.9483 Y77.4333 I0.0 J-0.25
G1 Y76.8761
G3 Y76.1905 I1.15 J-0.3428
G1 Y75.6333
G3 X24.1983 Y75.3833 I0.25 J0.0
G1 X24.7555
G3 X25.4411 I0.3428 J1.15
G1 X25.9983
G3 X26.0217 Y75.3844 I0.0 J0.25
G1 X29.0814
G1 X30.6859
G3 X31.0324 Y75.3333 I0.3465 J1.1489
G1 X34.4437
G1 X36.6585 Y73.1186
G3 X37.507 Y72.7671 I0.8485 J0.8485
G1 X38.6542
G3 X38.8042 Y72.7171 I0.15 J0.2
G1 X41.6342
G3 X41.811 Y72.7903 I0.0 J0.25
G1 X42.396 Y73.3753
G3 X42.4692 Y73.5521 I-0.1768 J0.1768
G1 Y74.3821
G3 X42.396 Y74.5589 I-0.25 J0.0
G1 X41.811 Y75.1439
G3 X41.6342 Y75.2171 I-0.1768 J-0.1768
G1 X38.8042
G3 X38.6542 Y75.1671 I0.0 J-0.25
G1 X38.0041
G1 X35.7893 Y77.3818
G3 X34.9408 Y77.7333 I-0.8485 J-0.8485
G1 X33.0329
G3 X32.8814 Y77.7844 I-0.1515 J-0.1989
G1 X30.9814
G1 X29.0814
G1 X25.4362
G0 Z3.0
G0 Y75.2792
G0 Z1.0
G1 Z-0.4
G1 X25.396
G3 X25.146 Y75.0292 I0.0 J-0.25
G1 Y73.9839
G1 Y73.1292
G3 X25.396 Y72.8792 I0.25 J0.0
G1 X25.8773
G3 X26.7222 Y72.8444 I0.4687 J1.1047
G1 X29.0814
G1 X30.9814
G1 X32.8814
G3 X33.1314 Y73.0944 I0.0 J0.25
G1 Y74.9944
G3 X32.8814 Y75.2444 I-0.25 J0.0
G1 X30.9814
G1 X29.0814
G1 X27.4232
G3 X27.296 Y75.2792 I-0.1272 J-0.2152
G1 X25.4362
G0 Z3.0
G0 Y61.062
G0 Z1.0
G1 Z-0.4
G1 X24.7085
G3 X24.4585 Y60.812 I0.0 J-0.25
G1 Y58.812
G3 X24.7085 Y58.562 I0.25 J0.0
G1 X26.7085
G3 X26.8585 Y58.612 I0.0 J0.25
G1 X37.5126
G1 X38.5668 Y57.5578
G1 Y57.3736
G1 X38.5502
G3 X38.3734 Y57.3004 I0.0 J-0.25
G1 X37.7884 Y56.7154
G3 X37.7152 Y56.5386 I0.1768 J-0.1768
G1 Y55.7086
G3 X37.7884 Y55.5318 I0.25 J0.0
G1 X38.3734 Y54.9468
G3 X38.5502 Y54.8736 I0.1768 J0.1768
G1 X41.3802
G3 X41.557 Y54.9468 I0.0 J0.25
G1 X42.142 Y55.5318
G3 X42.2152 Y55.7086 I-0.1768 J0.1768
G1 Y56.5386
G3 X42.142 Y56.7154 I-0.25 J0.0
G1 X41.557 Y57.3004
G3 X41.3802 Y57.3736 I-0.1768 J-0.1768
G1 X40.9668
G1 Y58.0548
G3 X40.6154 Y58.9033 I-1.2 J0.0
G1 X38.8583 Y60.6605
G3 X38.0097 Y61.012 I-0.8486 J-0.8485
G1 X26.8585
G3 X26.7085 Y61.062 I-0.15 J-0.2
G1 X25.4362
G0 Z3.0
G0 Y57.4009
G0 Z1.0
G1 Z-0.4
G1 X25.2129
G3 X24.7308 Y57.2998 I0.0 J-1.2
G1 X24.2618
G3 X24.0118 Y57.0498 I0.0 J-0.25
G1 Y56.4926
G3 Y55.807 I1.15 J-0.3428
G1 Y55.2498
G3 X24.2618 Y54.9998 I0.25 J0.0
G1 X24.819
G3 X25.5046 I0.3428 J1.15
G1 X26.0618
G3 X26.0852 Y55.0009 I0.0 J0.25
G1 X29.1449
G1 X30.7495
G3 X31.096 Y54.9498 I0.3465 J1.1489
G1 X34.5072
G1 X36.722 Y52.7351
G3 X37.5705 Y52.3836 I0.8485 J0.8485
G1 X38.4002
G3 X38.5502 Y52.3336 I0.15 J0.2
G1 X41.3802
G3 X41.557 Y52.4068 I0.0 J0.25
G1 X42.142 Y52.9918
G3 X42.2152 Y53.1686 I-0.1768 J0.1768
G1 Y53.9986
G3 X42.142 Y54.1754 I-0.25 J0.0
G1 X41.557 Y54.7604
G3 X41.3802 Y54.8336 I-0.1768 J-0.1768
G1 X38.5502
G3 X38.4002 Y54.7836 I0.0 J-0.25
G1 X38.0676
G1 X35.8528 Y56.9983
G3 X35.0043 Y57.3498 I-0.8485 J-0.8485
G1 X33.0964
G3 X32.9449 Y57.4009 I-0.1515 J-0.1989
G1 X31.0449
G1 X29.1449
G1 X25.4362
G0 Z3.0
G0 X25.4573 Y54.8957
G0 Z1.0
G1 Z-0.4
G3 X25.2094 Y54.6457 I0.0021 J-0.25
G1 Y53.6004
G1 Y52.7457
G3 X25.4594 Y52.4957 I0.25 J0.0
G1 X25.9407
G3 X26.7853 Y52.4608 I0.4687 J1.1047
G1 X29.1449
G1 X31.0449
G1 X32.9449
G3 X33.1949 Y52.7108 I0.0 J0.25
G1 Y54.6108
G3 X32.9449 Y54.8608 I-0.25 J0.0
G1 X31.0449
G1 X29.1449
G1 X27.4868
G3 X27.3594 Y54.8957 I-0.1274 J-0.2151
G1 X25.4594
G3 X25.4573 I0.0 J-0.25
G0 Z3.0
G0 Y40.8054
G0 Z1.0
G1 Z-0.4
G1 X24.645
G3 X24.395 Y40.5554 I0.0 J-0.25
G1 Y38.5554
G3 X24.645 Y38.3054 I0.25 J0.0
G1 X26.645
G3 X26.795 Y38.3554 I0.0 J0.25
G1 X37.4491
G1 X38.5033 Y37.3012
G1 Y37.1171
G1 X38.4867
G3 X38.3099 Y37.0439 I0.0 J-0.25
G1 X37.7249 Y36.4589
G3 X37.6517 Y36.2821 I0.1768 J-0.1768
G1 Y35.4521
G3 X37.7249 Y35.2753 I0.25 J0.0
G1 X38.3099 Y34.6903
G3 X38.4867 Y34.6171 I0.1768 J0.1768
G1 X41.3167
G3 X41.4935 Y34.6903 I0.0 J0.25
G1 X42.0785 Y35.2753
G3 X42.1517 Y35.4521 I-0.1768 J0.1768
G1 Y36.2821
G3 X42.0785 Y36.4589 I-0.25 J0.0
G1 X41.4935 Y37.0439
G3 X41.3167 Y37.1171 I-0.1768 J-0.1768
G1 X40.9033
G1 Y37.7983
G3 X40.5518 Y38.6468 I-1.2 J0.0
G1 X38.7947 Y40.4039
G3 X37.9462 Y40.7554 I-0.8485 J-0.8485
G1 X26.795
G3 X26.645 Y40.8054 I-0.15 J-0.2
G1 X25.4573
G0 Z3.0
G0 Y37.1444
G0 Z1.0
G1 Z-0.4
G1 X25.1494
G3 X24.6673 Y37.0433 I0.0 J-1.2
G1 X24.1983
G3 X23.9483 Y36.7933 I0.0 J-0.25
G1 Y36.2361
G3 Y35.5505 I1.15 J-0.3428
G1 Y34.9933
G3 X24.1983 Y34.7433 I0.25 J0.0
G1 X24.7555
G3 X25.4411 I0.3428 J1.15
G1 X25.9983
G3 X26.0217 Y34.7444 I0.0 J0.25
G1 X29.0814
G1 X30.6859
G3 X31.0324 Y34.6933 I0.3465 J1.1489
G1 X34.4437
G1 X36.6585 Y32.4786
G3 X37.507 Y32.1271 I0.8485 J0.8485
G1 X38.3367
G3 X38.4867 Y32.0771 I0.15 J0.2
G1 X41.3167
G3 X41.4935 Y32.1503 I0.0 J0.25
G1 X42.0785 Y32.7353
G3 X42.1517 Y32.9121 I-0.1768 J0.1768
G1 Y33.7421
G3 X42.0785 Y33.9189 I-0.25 J0.0
G1 X41.4935 Y34.5039
G3 X41.3167 Y34.5771 I-0.1768 J-0.1768
G1 X38.4867
G3 X38.3367 Y34.5271 I0.0 J-0.25
G1 X38.0041
G1 X35.7893 Y36.7418
G3 X34.9408 Y37.0933 I-0.8485 J-0.8485
G1 X33.0329
G3 X32.8814 Y37.1444 I-0.1515 J-0.1989
G1 X30.9814
G1 X29.0814
G1 X25.4573
G0 Z3.0
G0 Y34.6392
G0 Z1.0
G1 Z-0.4
G1 X25.396
G3 X25.146 Y34.3892 I0.0 J-0.25
G1 Y33.3439
G1 Y32.4892
G3 X25.396 Y32.2392 I0.25 J0.0
G1 X25.8773
G3 X26.7222 Y32.2044 I0.4687 J1.1047
G1 X29.0814
G1 X30.9814
G1 X32.8814
G3 X33.1314 Y32.4544 I0.0 J0.25
G1 Y34.3544
G3 X32.8814 Y34.6044 I-0.25 J0.0
G1 X30.9814
G1 X29.0814
G1 X27.4232
G3 X27.296 Y34.6392 I-0.1272 J-0.2152
G1 X25.4573
G0 Z3.0
G0 Y20.549
G0 Z1.0
G1 Z-0.4
G1 X24.7085
G3 X24.4585 Y20.299 I0.0 J-0.25
G1 Y18.299
G3 X24.7085 Y18.049 I0.25 J0.0
G1 X26.7085
G3 X26.8585 Y18.099 I0.0 J0.25
G1 X37.5126
G1 X38.5668 Y17.0448
G1 Y16.8606
G1 X38.5502
G3 X38.3734 Y16.7874 I0.0 J-0.25
G1 X37.7884 Y16.2024
G3 X37.7152 Y16.0256 I0.1768 J-0.1768
G1 Y15.1956
G3 X37.7884 Y15.0188 I0.25 J0.0
G1 X38.3734 Y14.4338
G3 X38.5502 Y14.3606 I0.1768 J0.1768
G1 X41.3802
G3 X41.557 Y14.4338 I0.0 J0.25
G1 X42.142 Y15.0188
G3 X42.2152 Y15.1956 I-0.1768 J0.1768
G1 Y16.0256
G3 X42.142 Y16.2024 I-0.25 J0.0
G1 X41.557 Y16.7874
G3 X41.3802 Y16.8606 I-0.1768 J-0.1768
G1 X40.9668
G1 Y17.5418
G3 X40.6154 Y18.3903 I-1.2 J0.0
G1 X38.8583 Y20.1475
G3 X38.0097 Y20.499 I-0.8486 J-0.8485
G1 X26.8585
G3 X26.7085 Y20.549 I-0.15 J-0.2
G1 X25.4573
G0 Z3.0
G0 Y16.8879
G0 Z1.0
G1 Z-0.4
G1 X25.2129
G3 X24.7308 Y16.7868 I0.0 J-1.2
G1 X24.2618
G3 X24.0118 Y16.5368 I0.0 J-0.25
G1 Y15.9796
G3 Y15.294 I1.15 J-0.3428
G1 Y14.7368
G3 X24.2618 Y14.4868 I0.25 J0.0
G1 X24.819
G3 X25.5046 I0.3428 J1.15
G1 X26.0618
G3 X26.0852 Y14.4879 I0.0 J0.25
G1 X29.1449
G1 X30.7495
G3 X31.096 Y14.4368 I0.3465 J1.1489
G1 X34.5072
G1 X36.722 Y12.2221
G3 X37.5705 Y11.8706 I0.8485 J0.8485
G1 X38.4002
G3 X38.5502 Y11.8206 I0.15 J0.2
G1 X41.3802
G3 X41.557 Y11.8938 I0.0 J0.25
G1 X42.142 Y12.4788
G3 X42.2152 Y12.6556 I-0.1768 J0.1768
G1 Y13.4856
G3 X42.142 Y13.6624 I-0.25 J0.0
G1 X41.557 Y14.2474
G3 X41.3802 Y14.3206 I-0.1768 J-0.1768
G1 X38.5502
G3 X38.4002 Y14.2706 I0.0 J-0.25
G1 X38.0676
G1 X35.8528 Y16.4853
G3 X35.0043 Y16.8368 I-0.8485 J-0.8485
G1 X33.0964
G3 X32.9449 Y16.8879 I-0.1515 J-0.1989
G1 X31.0449
G1 X29.1449
G1 X25.4573
G0 Z3.0
G0 X25.4592 Y14.3827
G0 Z1.0
G1 Z-0.4
G3 X25.2094 Y14.1327 I0.0002 J-0.25
G1 Y13.0874
G1 Y12.2327
G3 X25.4594 Y11.9827 I0.25 J0.0
G1 X25.9407
G3 X26.7853 Y11.9478 I0.4687 J1.1047
G1 X29.1449
G1 X31.0449
G1 X32.9449
G3 X33.1949 Y12.1978 I0.0 J0.25
G1 Y14.0978
G3 X32.9449 Y14.3478 I-0.25 J0.0
G1 X31.0449
G1 X29.1449
G1 X27.4868
G3 X27.3594 Y14.3827 I-0.1274 J-0.2151
G1 X25.4594
G3 X25.4592 I0.0 J-0.25
G0 Z3.0
G0 X8.561 Y10.1883
G0 Z1.0
G1 Z-0.4
G3 X8.3184 Y10.3781 I-0.2426 J-0.0602
G1 X7.7654
G1 X6.0194 Y12.1241
G1 Y13.0557
G1 Y14.0057
G1 Y16.3568
G1 X6.3194
G3 X6.5694 Y16.6068 I0.0 J0.25
G1 Y19.6068
G3 X6.3194 Y19.8568 I-0.25 J0.0
G1 X3.3194
G3 X3.0694 Y19.6068 I0.0 J-0.25
G1 Y16.6068
G3 X3.3194 Y16.3568 I0.25 J0.0
G1 X3.6194
G1 Y14.0057
G1 Y13.0557
G1 Y12.1057
G1 Y11.9444
G1 Y11.627
G3 X3.9709 Y10.7785 I1.2 J0.0
G1 X6.0684 Y8.681
G1 Y8.1281
G3 X6.3184 Y7.8781 I0.25 J0.0
G1 X8.3184
G3 X8.5684 Y8.1281 I0.0 J0.25
G1 Y10.1281
G3 X8.561 Y10.1883 I-0.25 J0.0
G0 Z3.0
G0 X8.1652 Y27.8807
G0 Z1.0
G1 Z-0.4
G3 X8.4096 Y28.1306 I-0.0056 J0.2499
G1 Y30.1306
G3 X8.1596 Y30.3806 I-0.25 J0.0
G1 X7.6067
G1 X5.956 Y32.0313
G1 Y32.2009
G1 Y32.5209
G1 Y34.4209
G1 Y36.6133
G1 X6.256
G3 X6.506 Y36.8633 I0.0 J0.25
G1 Y39.8633
G3 X6.256 Y40.1133 I-0.25 J0.0
G1 X3.256
G3 X3.006 Y39.8633 I0.0 J-0.25
G1 Y36.8633
G3 X3.256 Y36.6133 I0.25 J0.0
G1 X3.556
G1 Y34.4209
G1 Y32.5209
G1 Y32.2009
G1 Y31.5343
G3 X3.9075 Y30.6858 I1.2 J0.0
G1 X5.9096 Y28.6836
G1 Y28.1306
G3 X6.1596 Y27.8806 I0.25 J0.0
G1 X8.1596
G3 X8.1652 Y27.8807 I0.0 J0.25
G0 Z3.0
G0 Y48.3911
G0 Z1.0
G1 Z-0.4
G1 X8.3184
G3 X8.5684 Y48.6411 I0.0 J0.25
G1 Y50.6411
G3 X8.3184 Y50.8911 I-0.25 J0.0
G1 X7.7654
G1 X6.0194 Y52.6371
G1 Y54.5187
G1 Y56.8698
G1 X6.3194
G3 X6.5694 Y57.1198 I0.0 J0.25
G1 Y60.1198
G3 X6.3194 Y60.3698 I-0.25 J0.0
G1 X3.3194
G3 X3.0694 Y60.1198 I0.0 J-0.25
G1 Y57.1198
G3 X3.3194 Y56.8698 I0.25 J0.0
G1 X3.6194
G1 Y54.5187
G1 Y52.6187
G1 Y52.4574
G1 Y52.14
G3 X3.9709 Y51.2915 I1.2 J0.0
G1 X6.0684 Y49.194
G1 Y48.6411
G3 X6.3184 Y48.3911 I0.25 J0.0
G1 X8.1652
G0 Z3.0
G0 X8.1597 Y68.5206
G0 Z1.0
G1 Z-0.4
G3 X8.4096 Y68.7706 I-0.0001 J0.25
G1 Y70.7706
G3 X8.1596 Y71.0206 I-0.25 J0.0
G1 X7.6067
G1 X5.956 Y72.6713
G1 Y72.8409
G1 Y73.0022
G1 Y74.9022
G1 Y77.2533
G1 X6.256
G3 X6.506 Y77.5033 I0.0 J0.25
G1 Y80.5033
G3 X6.256 Y80.7533 I-0.25 J0.0
G1 X3.256
G3 X3.006 Y80.5033 I0.0 J-0.25
G1 Y77.5033
G3 X3.256 Y77.2533 I0.25 J0.0
G1 X3.556
G1 Y74.9022
G1 Y73.0022
G1 Y72.8409
G1 Y72.1743
G3 X3.9075 Y71.3258 I1.2 J0.0
G1 X5.9096 Y69.3236
G1 Y68.7706
G3 X6.1596 Y68.5206 I0.25 J0.0
G1 X8.1596
G1 X8.1597
G0 Z3.0
G0 Y89.0152
G0 Z1.0
G1 Z-0.4
G1 X8.239
G3 X8.489 Y89.2652 I0.0 J0.25
G1 Y91.2652
G3 X8.239 Y91.5152 I-0.25 J0.0
G1 X7.6861
G1 X6.0194 Y93.1819
G1 Y93.3222
G1 Y95.2222
G1 Y97.5733
G1 X6.3194
G3 X6.5694 Y97.8233 I0.0 J0.25
G1 Y100.8233
G3 X6.3194 Y101.0733 I-0.25 J0.0
G1 X3.3194
G3 X3.0694 Y100.8233 I0.0 J-0.25
G1 Y97.8233
G3 X3.3194 Y97.5733 I0.25 J0.0
G1 X3.6194
G1 Y95.2222
G1 Y93.3222
G1 Y93.1609
G1 Y92.6848
G3 X3.9709 Y91.8363 I1.2 J0.0
G1 X5.989 Y89.8181
G1 Y89.2652
G3 X6.239 Y89.0152 I0.25 J0.0
G1 X8.1597
G0 Z3.0
G0 X43.069
G0 Z1.0
G1 Z-0.4
G1 Y76.5175
G1 Y56.1975
G1 Y36.4182
G3 Y35.3368 I0.8412 J-0.5407
G1 Y15.5575
G3 X44.3905 Y14.6106 I1.0 J0.0
G1 X45.8166
G1 X45.9934 Y14.4338
G3 X46.1702 Y14.3606 I0.1768 J0.1768
G1 X49.0002
G3 X49.177 Y14.4338 I0.0 J0.25
G1 X49.762 Y15.0188
G3 X49.8352 Y15.1956 I-0.1768 J0.1768
G1 Y16.0256
G3 X49.762 Y16.2024 I-0.25 J0.0
G1 X49.177 Y16.7874
G3 X49.0002 Y16.8606 I-0.1768 J-0.1768
G1 X46.1702
G3 X45.9934 Y16.7874 I0.0 J-0.25
G1 X45.8166 Y16.6106
G1 X45.069
G1 Y34.8671
G1 X45.7531
G1 X45.9299 Y34.6903
G3 X46.1067 Y34.6171 I0.1768 J0.1768
G1 X48.9367
G3 X49.1135 Y34.6903 I0.0 J0.25
G1 X49.6985 Y35.2753
G3 X49.7717 Y35.4521 I-0.1768 J0.1768
G1 Y36.2821
G3 X49.6985 Y36.4589 I-0.25 J0.0
G1 X49.1135 Y37.0439
G3 X48.9367 Y37.1171 I-0.1768 J-0.1768
G1 X46.1067
G3 X45.9299 Y37.0439 I0.0 J-0.25
G1 X45.7531 Y36.8671
G1 X45.069
G1 Y55.1236
G1 X45.8166
G1 X45.9934 Y54.9468
G3 X46.1702 Y54.8736 I0.1768 J0.1768
G1 X49.0002
G3 X49.177 Y54.9468 I0.0 J0.25
G1 X49.762 Y55.5318
G3 X49.8352 Y55.7086 I-0.1768 J0.1768
G1 Y56.5386
G3 X49.762 Y56.7154 I-0.25 J0.0
G1 X49.177 Y57.3004
G3 X49.0002 Y57.3736 I-0.1768 J-0.1768
G1 X46.1702
G3 X45.9934 Y57.3004 I0.0 J-0.25
G1 X45.8166 Y57.1236
G1 X45.069
G1 Y63.9863
G1 X45.3518
G3 X45.5566 Y63.8797 I0.2048 J0.1434
G1 X49.5566
G3 X49.802 Y64.0821 I0.0 J0.25
G1 X49.9579
G3 X50.2079 Y63.8321 I0.25 J0.0
G1 X54.2079
G3 X54.4579 Y64.0821 I0.0 J0.25
G1 X75.3579
G3 X75.6079 Y63.8321 I0.25 J0.0
G1 X79.6079
G3 X79.8579 Y64.0821 I0.0 J0.25
G1 Y64.1297
G1 X79.9141
G3 X80.1641 Y63.8797 I0.25 J0.0
G1 X84.1641
G3 X84.4141 Y64.1297 I0.0 J0.25
G1 X85.0659
G1 X85.0704 Y54.6438
G1 X84.1939
G1 X84.0171 Y54.8206
G3 X83.8403 Y54.8938 I-0.1768 J-0.1768
G1 X81.0103
G3 X80.8335 Y54.8206 I0.0 J-0.25
G1 X80.2485 Y54.2356
G3 X80.1753 Y54.0588 I0.1768 J-0.1768
G1 Y53.2288
G3 X80.2485 Y53.052 I0.25 J0.0
G1 X80.8335 Y52.467
G3 X81.0103 Y52.3938 I0.1768 J0.1768
G1 X83.8403
G3 X84.0171 Y52.467 I0.0 J0.25
G1 X84.1939 Y52.6438
G1 X85.0713
G1 X85.0798 Y34.3238
G1 X84.1304
G1 X83.9536 Y34.5006
G3 X83.7768 Y34.5738 I-0.1768 J-0.1768
G1 X80.9468
G3 X80.77 Y34.5006 I0.0 J-0.25
G1 X80.185 Y33.9156
G3 X80.1118 Y33.7388 I0.1768 J-0.1768
G1 Y32.9088
G3 X80.185 Y32.732 I0.25 J0.0
G1 X80.77 Y32.147
G3 X80.9468 Y32.0738 I0.1768 J0.1768
G1 X83.7768
G3 X83.9536 Y32.147 I0.0 J0.25
G1 X84.1304 Y32.3238
G1 X85.0808
G1 X85.0893 Y13.9403
G1 X84.1621
G1 X83.9853 Y14.1171
G3 X83.8085 Y14.1903 I-0.1768 J-0.1768
G1 X80.9785
G3 X80.8017 Y14.1171 I0.0 J-0.25
G1 X80.2167 Y13.5321
G3 X80.1435 Y13.3553 I0.1768 J-0.1768
G1 Y12.5253
G3 X80.2167 Y12.3485 I0.25 J0.0
G1 X80.8017 Y11.7635
G3 X80.9785 Y11.6903 I0.1768 J0.1768
G1 X83.8085
G3 X83.9853 Y11.7635 I0.0 J0.25
G1 X84.1621 Y11.9403
G1 X85.7482
G3 X87.0896 Y13.2825 I0.4473 J0.8944
G1 X87.0425 Y114.4292
G2 Y114.4289 I-0.25 J0.0001
G1 Y114.4288
G1 Y114.4294
G1 Y114.4292
G3 Y114.4294 I-0.25 J0.0001
G1 X87.0422 Y115.1794
G3 X86.7921 Y115.4293 I-0.25 J-0.0001
G1 X86.7828
G3 X86.5749 Y115.5404 I-0.2079 J-0.1389
G1 X85.8249
G1 X84.1303
G1 X83.9536 Y115.7171
G3 X83.7768 Y115.7903 I-0.1768 J-0.1768
G1 X80.9468
G3 X80.77 Y115.7171 I0.0 J-0.25
G1 X80.185 Y115.1321
G3 X80.1118 Y114.9553 I0.1768 J-0.1768
G1 Y114.1253
G3 X80.185 Y113.9485 I0.25 J0.0
G1 X80.77 Y113.3635
G3 X80.9468 Y113.2903 I0.1768 J0.1768
G1 X83.7768
G3 X83.9536 Y113.3635 I0.0 J0.25
G1 X84.1304 Y113.5404
G1 X85.0429
G1 X85.0514 Y95.2838
G1 X84.1939
G1 X84.0171 Y95.4606
G3 X83.8403 Y95.5338 I-0.1768 J-0.1768
G1 X81.0103
G3 X80.8335 Y95.4606 I0.0 J-0.25
G1 X80.2485 Y94.8756
G3 X80.1753 Y94.6988 I0.1768 J-0.1768
G1 Y93.8688
G3 X80.2485 Y93.692 I0.25 J0.0
G1 X80.8335 Y93.107
G3 X81.0103 Y93.0338 I0.1768 J0.1768
G1 X83.8403
G3 X84.0171 Y93.107 I0.0 J0.25
G1 X84.1939 Y93.2838
G1 X85.0524
G1 X85.0609 Y75.0274
G1 X84.1304
G1 X83.9536 Y75.2042
G3 X83.7768 Y75.2774 I-0.1768 J-0.1768
G1 X80.9468
G3 X80.77 Y75.2042 I0.0 J-0.25
G1 X80.185 Y74.6192
G3 X80.1118 Y74.4424 I0.1768 J-0.1768
G1 Y73.6124
G3 X80.185 Y73.4356 I0.25 J0.0
G1 X80.77 Y72.8506
G3 X80.9468 Y72.7774 I0.1768 J0.1768
G1 X83.7768
G3 X83.9536 Y72.8506 I0.0 J0.25
G1 X84.1304 Y73.0274
G1 X85.0618
G1 X85.065 Y66.1297
G1 X84.4141
G3 X84.1641 Y66.3797 I-0.25 J0.0
G1 X80.1641
G3 X79.9141 Y66.1297 I0.0 J-0.25
G1 X79.8533
G3 X79.6079 Y66.3321 I-0.2454 J-0.0476
G1 X75.6079
G3 X75.3579 Y66.0821 I0.0 J-0.25
G1 X54.4579
G3 X54.2079 Y66.3321 I-0.25 J0.0
G1 X50.2079
G3 X49.9579 Y66.0821 I0.0 J-0.25
G1 X49.8066
G1 Y66.1297
G3 X49.5566 Y66.3797 I-0.25 J0.0
G1 X45.5566
G3 X45.3066 Y66.1297 I0.0 J-0.25
G1 Y65.9863
G1 X45.069
G1 Y75.5071
G1 X46.0706
G1 X46.2474 Y75.3303
G3 X46.4242 Y75.2571 I0.1768 J0.1768
G1 X49.2542
G3 X49.431 Y75.3303 I0.0 J0.25
G1 X50.016 Y75.9153
G3 X50.0892 Y76.0921 I-0.1768 J0.1768
G1 Y76.9221
G3 X50.016 Y77.0989 I-0.25 J0.0
G1 X49.431 Y77.6839
G3 X49.2542 Y77.7571 I-0.1768 J-0.1768
G1 X46.4242
G3 X46.2474 Y77.6839 I0.0 J-0.25
G1 X46.0706 Y77.5071
G1 X45.069
G1 Y95.8271
G1 X45.8166
G1 X45.9934 Y95.6503
G3 X46.1702 Y95.5771 I0.1768 J0.1768
G1 X49.0002
G3 X49.177 Y95.6503 I0.0 J0.25
G1 X49.762 Y96.2353
G3 X49.8352 Y96.4121 I-0.1768 J0.1768
G1 Y97.2421
G3 X49.762 Y97.4189 I-0.25 J0.0
G1 X49.177 Y98.0039
G3 X49.0002 Y98.0771 I-0.1768 J-0.1768
G1 X46.1702
G3 X45.9934 Y98.0039 I0.0 J-0.25
G1 X45.8166 Y97.8271
G1 X45.069
G1 Y116.2106
G1 X45.7849
G1 X45.9617 Y116.0338
G3 X46.1385 Y115.9606 I0.1768 J0.1768
G1 X48.9685
G3 X49.1453 Y116.0338 I0.0 J0.25
G1 X49.7303 Y116.6188
G3 X49.8035 Y116.7956 I-0.1768 J0.1768
G1 Y117.6256
G3 X49.7303 Y117.8024 I-0.25 J0.0
G1 X49.1453 Y118.3874
G3 X48.9685 Y118.4606 I-0.1768 J-0.1768
G1 X46.1385
G3 X45.9617 Y118.3874 I0.0 J-0.25
G1 X45.7849 Y118.2106
G1 X45.0135
G1 X44.5165
G3 X43.069 Y117.3163 I-0.4475 J-0.8943
G1 Y89.0152
G0 Z3.0
G0 X46.0233 Y93.0848
G0 Z1.0
G1 Z-0.4
G3 X46.1702 Y93.0371 I0.1469 J0.2023
G1 X49.0002
G3 X49.177 Y93.1103 I0.0 J0.25
G1 X49.3538 Y93.2871
G1 X58.4924
G1 X58.8484 Y92.9312
G1 X58.8302 Y74.9521
G1 X58.8279
G3 X58.5779 Y74.7021 I0.0 J-0.25
G1 Y70.7021
G3 X58.8279 Y70.4521 I0.25 J0.0
G1 X60.8279
G3 X61.0779 Y70.7021 I0.0 J0.25
G1 Y74.7021
G3 X60.8302 Y74.9521 I-0.25 J0.0
G1 X60.8488 Y93.344
G3 X60.5559 Y94.0521 I-1.0 J0.001
G1 X59.6137 Y94.9942
G3 X58.9066 Y95.2871 I-0.7071 J-0.7071
G1 X49.3538
G1 X49.177 Y95.4639
G3 X49.0002 Y95.5371 I-0.1768 J-0.1768
G1 X46.1702
G3 X45.9934 Y95.4639 I0.0 J-0.25
G1 X45.4084 Y94.8789
G3 X45.3352 Y94.7021 I0.1768 J-0.1768
G1 Y93.8721
G3 X45.4084 Y93.6953 I0.25 J0.0
G1 X45.9934 Y93.1103
G3 X46.0233 Y93.0848 I0.1768 J0.1768
G0 Z3.0
G0 X61.3788 Y93.0766
G0 Z1.0
G1 Z-0.4
G1 X61.3691 Y74.9521
G1 X61.3679
G3 X61.1179 Y74.7021 I0.0 J-0.25
G1 Y70.7021
G3 X61.3679 Y70.4521 I0.25 J0.0
G1 X63.3679
G3 X63.6179 Y70.7021 I0.0 J0.25
G1 Y74.7021
G3 X63.3691 Y74.9521 I-0.25 J0.0
G1 X63.3888 Y111.9183
G3 X63.0959 Y112.6259 I-1.0 J0.0005
G1 X60.344 Y115.3777
G3 X59.6369 Y115.6706 I-0.7071 J-0.7071
G1 X49.3221
G1 X49.1453 Y115.8474
G3 X48.9685 Y115.9206 I-0.1768 J-0.1768
G1 X46.1385
G3 X45.9617 Y115.8474 I0.0 J-0.25
G1 X45.3767 Y115.2624
G3 X45.3035 Y115.0856 I0.1768 J-0.1768
G1 Y114.2556
G3 X45.3767 Y114.0788 I0.25 J0.0
G1 X45.9617 Y113.4938
G3 X46.1385 Y113.4206 I0.1768 J0.1768
G1 X48.9685
G3 X49.1453 Y113.4938 I0.0 J0.25
G1 X49.3221 Y113.6706
G1 X59.2227
G1 X61.3886 Y111.5048
G1 X61.3788 Y93.0766
G0 Z3.0
G0 X66.4588 Y93.0739
G0 Z1.0
G1 Z-0.4
G1 X66.4491 Y74.9521
G1 X66.4479
G3 X66.1979 Y74.7021 I0.0 J-0.25
G1 Y70.7021
G3 X66.4479 Y70.4521 I0.25 J0.0
G1 X68.4479
G3 X68.6979 Y70.7021 I0.0 J0.25
G1 Y74.7021
G3 X68.4491 Y74.9521 I-0.25 J0.0
G1 X68.4686 Y111.1868
G1 X73.362 Y116.0803
G1 X80.5932
G1 X80.77 Y115.9035
G3 X80.9468 Y115.8303 I0.1768 J0.1768
G1 X83.7768
G3 X83.9536 Y115.9035 I0.0 J0.25
G1 X84.5386 Y116.4885
G3 X84.6118 Y116.6653 I-0.1768 J0.1768
G1 Y117.4953
G3 X84.5386 Y117.6721 I-0.25 J0.0
G1 X83.9536 Y118.2571
G3 X83.7768 Y118.3303 I-0.1768 J-0.1768
G1 X80.9468
G3 X80.77 Y118.2571 I0.0 J-0.25
G1 X80.5932 Y118.0803
G1 X72.9478
G3 X72.2407 Y117.7874 I0.0 J-1.0
G1 X66.7617 Y112.3083
G3 X66.4688 Y111.6017 I0.7071 J-0.7071
G1 X66.4588 Y93.0739
G0 Z3.0
G0 X69.0105 Y92.9265
G0 Z1.0
G1 Z-0.4
G3 X69.0088 Y92.8698 I0.9983 J-0.0577
G1 X68.9901 Y74.9521
G1 X68.9878
G3 X68.7378 Y74.7021 I0.0 J-0.25
G1 Y70.7021
G3 X68.9878 Y70.4521 I0.25 J0.0
G1 X70.9878
G3 X71.2378 Y70.7021 I0.0 J0.25
G1 Y74.7021
G3 X70.9901 Y74.9521 I-0.25 J0.0
G1 X71.0084 Y92.4542
G1 X74.378 Y95.8238
G1 X80.6567
G1 X80.8335 Y95.647
G3 X81.0103 Y95.5738 I0.1768 J0.1768
G1 X83.8403
G3 X84.0171 Y95.647 I0.0 J0.25
G1 X84.6021 Y96.232
G3 X84.6753 Y96.4088 I-0.1768 J0.1768
G1 Y97.2388
G3 X84.6021 Y97.4156 I-0.25 J0.0
G1 X84.0171 Y98.0006
G3 X83.8403 Y98.0738 I-0.1768 J-0.1768
G1 X81.0103
G3 X80.8335 Y98.0006 I0.0 J-0.25
G1 X80.6567 Y97.8238
G1 X73.9638
G3 X73.2567 Y97.5309 I0.0 J-1.0
G1 X69.3017 Y93.5759
G3 X69.0105 Y92.9265 I0.7071 J-0.7071
G0 Z3.0
G0 X71.4937 Y74.9497
G0 Z1.0
G1 Z-0.4
G3 X71.2779 Y74.7021 I0.0342 J-0.2476
G1 Y70.7021
G3 X71.5279 Y70.4521 I0.25 J0.0
G1 X73.5279
G3 X73.7779 Y70.7021 I0.0 J0.25
G1 Y71.7075
G1 X76.5175
G3 X77.2246 Y72.0004 I0.0 J1.0
G1 X80.6924 Y75.4682
G1 X80.77 Y75.3905
G3 X80.9468 Y75.3173 I0.1768 J0.1768
G1 X83.7768
G3 X83.9536 Y75.3905 I0.0 J0.25
G1 X84.5386 Y75.9755
G3 X84.6118 Y76.1523 I-0.1768 J0.1768
G1 Y76.9823
G3 X84.5386 Y77.1591 I-0.25 J0.0
G1 X83.9536 Y77.7441
G3 X83.7768 Y77.8173 I-0.1768 J-0.1768
G1 X80.9468
G3 X80.77 Y77.7441 I0.0 J-0.25
G1 X80.5932 Y77.5673
G1 X80.3773
G3 X79.6702 Y77.2744 I0.0 J-1.0
G1 X76.1033 Y73.7075
G1 X73.7779
G1 Y74.7021
G3 X73.5279 Y74.9521 I-0.25 J0.0
G1 X71.5279
G3 X71.4937 Y74.9497 I0.0 J-0.25
G0 Z3.0
G0 X75.4239 Y71.3314
G0 Z1.0
G1 Z-0.4
G3 X75.3578 Y71.1621 I0.1839 J-0.1693
G1 Y69.1621
G3 X75.6078 Y68.9121 I0.25 J0.0
G1 X79.6078
G3 X79.8578 Y69.1621 I0.0 J0.25
G1 Y69.2097
G1 X79.9141
G3 X80.1641 Y68.9597 I0.25 J0.0
G1 X84.1641
G3 X84.4141 Y69.2097 I0.0 J0.25
G1 Y71.2097
G3 X84.1641 Y71.4597 I-0.25 J0.0
G1 X80.1641
G3 X79.9141 Y71.2097 I0.0 J-0.25
G1 X79.8532
G3 X79.6078 Y71.4121 I-0.2454 J-0.0476
G1 X75.6078
G3 X75.4239 Y71.3314 I0.0 J-0.25
G0 Z3.0
G0 X75.5909 Y68.8715
G0 Z1.0
G1 Z-0.4
G3 X75.3578 Y68.6221 I0.0169 J-0.2494
G1 Y66.6221
G3 X75.6078 Y66.3721 I0.25 J0.0
G1 X79.6078
G3 X79.8578 Y66.6221 I0.0 J0.25
G1 Y66.6697
G1 X79.9141
G3 X80.1641 Y66.4197 I0.25 J0.0
G1 X84.1641
G3 X84.4141 Y66.6697 I0.0 J0.25
G1 Y68.6697
G3 X84.1641 Y68.9197 I-0.25 J0.0
G1 X80.1641
G3 X79.9141 Y68.6697 I0.0 J-0.25
G1 X79.8532
G3 X79.6078 Y68.8721 I-0.2454 J-0.0476
G1 X75.6078
G3 X75.5909 Y68.8715 I0.0 J-0.25
G0 Z3.0
G0 X75.6071 Y63.7921
G0 Z1.0
G1 Z-0.4
G3 X75.3579 Y63.5421 I0.0008 J-0.25
G1 Y61.5421
G3 X75.6079 Y61.2921 I0.25 J0.0
G1 X79.6079
G3 X79.8579 Y61.5421 I0.0 J0.25
G1 Y61.5897
G1 X79.9141
G3 X80.1641 Y61.3397 I0.25 J0.0
G1 X84.1641
G3 X84.4141 Y61.5897 I0.0 J0.25
G1 Y63.5897
G3 X84.1641 Y63.8397 I-0.25 J0.0
G1 X80.1641
G3 X79.9141 Y63.5897 I0.0 J-0.25
G1 X79.8533
G3 X79.6079 Y63.7921 I-0.2454 J-0.0476
G1 X75.6079
G3 X75.6071 I0.0 J-0.25
G0 Z3.0
G0 X75.6078 Y61.2521
G0 Z1.0
G1 Z-0.4
G3 X75.3579 Y61.0021 I0.0001 J-0.25
G1 Y59.0021
G3 X75.6079 Y58.7521 I0.25 J0.0
G1 X79.6079
G3 X79.8579 Y59.0021 I0.0 J0.25
G1 Y59.0497
G1 X79.9141
G3 X80.1641 Y58.7997 I0.25 J0.0
G1 X84.1641
G3 X84.4141 Y59.0497 I0.0 J0.25
G1 Y61.0497
G3 X84.1641 Y61.2997 I-0.25 J0.0
G1 X80.1641
G3 X79.9141 Y61.0497 I0.0 J-0.25
G1 X79.8533
G3 X79.6079 Y61.2521 I-0.2454 J-0.0476
G1 X75.6079
G1 X75.6078
G0 Z3.0
G0 X73.7246 Y59.7751
G0 Z1.0
G1 Z-0.4
G3 X73.5279 Y59.8708 I-0.1967 J-0.1543
G1 X71.5279
G3 X71.2779 Y59.6208 I0.0 J-0.25
G1 Y55.6208
G3 X71.5279 Y55.3708 I0.25 J0.0
G1 X73.5279
G3 X73.7779 Y55.6208 I0.0 J0.25
G1 Y56.6262
G1 X76.4208
G1 X77.5703 Y55.4767
G3 X78.2774 Y55.1838 I0.7071 J0.7071
G1 X80.6567
G1 X80.8335 Y55.007
G3 X81.0103 Y54.9338 I0.1768 J0.1768
G1 X83.8403
G3 X84.0171 Y55.007 I0.0 J0.25
G1 X84.6021 Y55.592
G3 X84.6753 Y55.7688 I-0.1768 J0.1768
G1 Y56.5988
G3 X84.6021 Y56.7756 I-0.25 J0.0
G1 X84.0171 Y57.3606
G3 X83.8403 Y57.4338 I-0.1768 J-0.1768
G1 X81.0103
G3 X80.8335 Y57.3606 I0.0 J-0.25
G1 X80.6567 Y57.1838
G1 X78.6916
G1 X77.5421 Y58.3333
G3 X76.835 Y58.6262 I-0.7071 J-0.7071
G1 X73.7779
G1 Y59.6208
G3 X73.7246 Y59.7751 I-0.25 J0.0
G0 Z3.0
G0 X71.2375 Y59.6349
G0 Z1.0
G1 Z-0.4
G3 X70.9879 Y59.8708 I-0.2496 J-0.0141
G1 X68.9879
G3 X68.7379 Y59.6208 I0.0 J-0.25
G1 Y55.6208
G3 X68.9879 Y55.3708 I0.25 J0.0
G1 X68.991
G1 X69.0088 Y42.3848
G3 X69.3017 Y41.6791 I1.0 J0.0014
G1 X75.8241 Y35.1567
G3 X76.5312 Y34.8638 I0.7071 J0.7071
G1 X80.5932
G1 X80.77 Y34.687
G3 X80.9468 Y34.6138 I0.1768 J0.1768
G1 X83.7768
G3 X83.9536 Y34.687 I0.0 J0.25
G1 X84.5386 Y35.272
G3 X84.6118 Y35.4488 I-0.1768 J0.1768
G1 Y36.2788
G3 X84.5386 Y36.4556 I-0.25 J0.0
G1 X83.9536 Y37.0406
G3 X83.7768 Y37.1138 I-0.1768 J-0.1768
G1 X80.9468
G3 X80.77 Y37.0406 I0.0 J-0.25
G1 X80.5932 Y36.8638
G1 X76.9454
G1 X71.0082 Y42.801
G1 X70.991 Y55.3708
G3 X71.2379 Y55.6208 I-0.0031 J0.25
G1 Y59.6208
G3 X71.2375 Y59.6349 I-0.25 J0.0
G0 Z3.0
G0 X68.6979 Y59.6221
G0 Z1.0
G1 Z-0.4
G3 X68.4479 Y59.8708 I-0.25 J-0.0013
G1 X66.4479
G3 X66.1979 Y59.6208 I0.0 J-0.25
G1 Y55.6208
G3 X66.4479 Y55.3708 I0.25 J0.0
G1 X66.4493
G1 X66.4688 Y23.3356
G3 X66.7617 Y22.6291 I1.0 J0.0006
G1 X74.6175 Y14.7733
G3 X75.3246 Y14.4804 I0.7071 J0.7071
G1 X80.6249
G1 X80.8017 Y14.3036
G3 X80.9785 Y14.2304 I0.1768 J0.1768
G1 X83.8085
G3 X83.9853 Y14.3036 I0.0 J0.25
G1 X84.5703 Y14.8886
G3 X84.6435 Y15.0654 I-0.1768 J0.1768
G1 Y15.8954
G3 X84.5703 Y16.0722 I-0.25 J0.0
G1 X83.9853 Y16.6572
G3 X83.8085 Y16.7304 I-0.1768 J-0.1768
G1 X80.9785
G3 X80.8017 Y16.6572 I0.0 J-0.25
G1 X80.6249 Y16.4804
G1 X75.7388
G1 X68.4685 Y23.7507
G1 X68.4493 Y55.3708
G3 X68.6979 Y55.6208 I-0.0014 J0.25
G1 Y59.6208
G3 Y59.6221 I-0.25 J0.0
G0 Z3.0
G0 X63.6179 Y59.6209
G0 Z1.0
G1 Z-0.4
G3 X63.3679 Y59.8708 I-0.25 J-0.0001
G1 X61.3679
G3 X61.1179 Y59.6208 I0.0 J-0.25
G1 Y55.6208
G3 X61.3679 Y55.3708 I0.25 J0.0
G1 X61.3692
G1 X61.3886 Y22.7978
G1 X52.6614 Y14.0706
G1 X49.3538
G1 X49.177 Y14.2474
G3 X49.0002 Y14.3206 I-0.1768 J-0.1768
G1 X46.1702
G3 X45.9934 Y14.2474 I0.0 J-0.25
G1 X45.4084 Y13.6624
G3 X45.3352 Y13.4856 I0.1768 J-0.1768
G1 Y12.6556
G3 X45.4084 Y12.4788 I0.25 J0.0
G1 X45.9934 Y11.8938
G3 X46.1702 Y11.8206 I0.1768 J0.1768
G1 X49.0002
G3 X49.177 Y11.8938 I0.0 J0.25
G1 X49.3538 Y12.0706
G1 X53.0756
G3 X53.7827 Y12.3635 I0.0 J1.0
G1 X63.0959 Y21.6767
G3 X63.3888 Y22.3844 I-0.7071 J0.7071
G1 X63.3692 Y55.3708
G3 X63.6179 Y55.6208 I-0.0013 J0.25
G1 Y59.6208
G1 Y59.6209
G0 Z3.0
G0 X61.0779 Y59.6208
G0 Z1.0
G1 Z-0.4
G3 X60.8279 Y59.8708 I-0.25 J0.0
G1 X58.8279
G3 X58.5779 Y59.6208 I0.0 J-0.25
G1 Y55.6208
G3 X58.8279 Y55.3708 I0.25 J0.0
G1 X58.8305
G1 X58.8483 Y40.2599
G1 X52.9154 Y34.3271
G1 X49.2903
G1 X49.1135 Y34.5039
G3 X48.9367 Y34.5771 I-0.1768 J-0.1768
G1 X46.1067
G3 X45.9299 Y34.5039 I0.0 J-0.25
G1 X45.3449 Y33.9189
G3 X45.2717 Y33.7421 I0.1768 J-0.1768
G1 Y32.9121
G3 X45.3449 Y32.7353 I0.25 J0.0
G1 X45.9299 Y32.1503
G3 X46.1067 Y32.0771 I0.1768 J0.1768
G1 X48.9367
G3 X49.1135 Y32.1503 I0.0 J0.25
G1 X49.2903 Y32.3271
G1 X53.3296
G3 X54.0367 Y32.62 I0.0 J1.0
G1 X60.5559 Y39.1391
G3 X60.8488 Y39.8474 I-0.7071 J0.7071
G1 X60.8305 Y55.3708
G3 X61.0779 Y55.6208 I-0.0026 J0.25
G1 Y59.6208
G0 Z3.0
G0 X58.5379
G0 Z1.0
G1 Z-0.4
G3 X58.2879 Y59.8708 I-0.25 J0.0
G1 X56.2879
G3 X56.0379 Y59.6208 I0.0 J-0.25
G1 Y58.6262
G1 X54.1338
G3 X53.4267 Y58.3333 I0.0 J-1.0
G1 X49.6769 Y54.5836
G1 X49.3538
G1 X49.177 Y54.7604
G3 X49.0002 Y54.8336 I-0.1768 J-0.1768
G1 X46.1702
G3 X45.9934 Y54.7604 I0.0 J-0.25
G1 X45.4084 Y54.1754
G3 X45.3352 Y53.9986 I0.1768 J-0.1768
G1 Y53.1686
G3 X45.4084 Y52.9918 I0.25 J0.0
G1 X45.9934 Y52.4068
G3 X46.1702 Y52.3336 I0.1768 J0.1768
G1 X49.0002
G3 X49.177 Y52.4068 I0.0 J0.25
G1 X49.3538 Y52.5836
G1 X50.0911
G3 X50.7982 Y52.8765 I0.0 J1.0
G1 X54.548 Y56.6262
G1 X56.0379
G1 Y55.6208
G3 X56.2879 Y55.3708 I0.25 J0.0
G1 X58.2879
G3 X58.5379 Y55.6208 I0.0 J0.25
G1 Y59.6208
G0 Z3.0
G0 X54.4579
G0 Z1.0
G1 Z-0.4
G1 Y61.0021
G3 X54.2079 Y61.2521 I-0.25 J0.0
G1 X50.2079
G3 X49.9579 Y61.0021 I0.0 J-0.25
G1 X49.8066
G1 Y61.0497
G3 X49.5566 Y61.2997 I-0.25 J0.0
G1 X45.5566
G3 X45.3066 Y61.0497 I0.0 J-0.25
G1 Y59.0497
G3 X45.5566 Y58.7997 I0.25 J0.0
G1 X49.5566
G3 X49.802 Y59.0021 I0.0 J0.25
G1 X49.9579
G3 X50.2079 Y58.7521 I0.25 J0.0
G1 X54.2079
G3 X54.4579 Y59.0021 I0.0 J0.25
G1 Y59.6208
G0 Z3.0
G0 X54.2402 Y61.2942
G0 Z1.0
G1 Z-0.4
G3 X54.4579 Y61.5421 I-0.0323 J0.2479
G1 Y63.5421
G3 X54.2079 Y63.7921 I-0.25 J0.0
G1 X50.2079
G3 X49.9579 Y63.5421 I0.0 J-0.25
G1 X49.8066
G1 Y63.5897
G3 X49.5566 Y63.8397 I-0.25 J0.0
G1 X45.5566
G3 X45.3066 Y63.5897 I0.0 J-0.25
G1 Y61.5897
G3 X45.5566 Y61.3397 I0.25 J0.0
G1 X49.5566
G3 X49.802 Y61.5421 I0.0 J0.25
G1 X49.9579
G3 X50.2079 Y61.2921 I0.25 J0.0
G1 X54.2079
G3 X54.2402 Y61.2942 I0.0 J0.25
G0 Z3.0
G0 X54.2094 Y66.3721
G0 Z1.0
G1 Z-0.4
G3 X54.4579 Y66.6221 I-0.0015 J0.25
G1 Y68.6221
G3 X54.2079 Y68.8721 I-0.25 J0.0
G1 X50.2079
G3 X49.9579 Y68.6221 I0.0 J-0.25
G1 X49.8066
G1 Y68.6697
G3 X49.5566 Y68.9197 I-0.25 J0.0
G1 X45.5566
G3 X45.3066 Y68.6697 I0.0 J-0.25
G1 Y66.6697
G3 X45.5566 Y66.4197 I0.25 J0.0
G1 X49.5566
G3 X49.802 Y66.6221 I0.0 J0.25
G1 X49.9579
G3 X50.2079 Y66.3721 I0.25 J0.0
G1 X54.2079
G3 X54.2094 I0.0 J0.25
G0 Z3.0
G0 X54.208 Y68.9121
G0 Z1.0
G1 Z-0.4
G3 X54.4579 Y69.1621 I-0.0001 J0.25
G1 Y71.1621
G3 X54.2079 Y71.4121 I-0.25 J0.0
G1 X50.2079
G3 X49.9579 Y71.1621 I0.0 J-0.25
G1 X49.8066
G1 Y71.2097
G3 X49.5566 Y71.4597 I-0.25 J0.0
G1 X45.5566
G3 X45.3066 Y71.2097 I0.0 J-0.25
G1 Y69.2097
G3 X45.5566 Y68.9597 I0.25 J0.0
G1 X49.5566
G3 X49.802 Y69.1621 I0.0 J0.25
G1 X49.9579
G3 X50.2079 Y68.9121 I0.25 J0.0
G1 X54.2079
G3 X54.208 I0.0 J0.25
G0 Z3.0
G0 X56.0984 Y70.539
G0 Z1.0
G1 Z-0.4
G3 X56.2879 Y70.4521 I0.1895 J0.1631
G1 X58.2879
G3 X58.5379 Y70.7021 I0.0 J0.25
G1 Y74.7021
G3 X58.2879 Y74.9521 I-0.25 J0.0
G1 X56.2879
G3 X56.0379 Y74.7021 I0.0 J-0.25
G1 Y73.7075
G1 X54.8654
G1 X53.8987 Y74.6742
G3 X53.1916 Y74.9671 I-0.7071 J-0.7071
G1 X49.6078
G1 X49.431 Y75.1439
G3 X49.2542 Y75.2171 I-0.1768 J-0.1768
G1 X46.4242
G3 X46.2474 Y75.1439 I0.0 J-0.25
G1 X45.6624 Y74.5589
G3 X45.5892 Y74.3821 I0.1768 J-0.1768
G1 Y73.5521
G3 X45.6624 Y73.3753 I0.25 J0.0
G1 X46.2474 Y72.7903
G3 X46.4242 Y72.7171 I0.1768 J0.1768
G1 X49.2542
G3 X49.431 Y72.7903 I0.0 J0.25
G1 X49.6078 Y72.9671
G1 X52.7774
G1 X53.7441 Y72.0004
G3 X54.4512 Y71.7075 I0.7071 J0.7071
G1 X56.0379
G1 Y70.7021
G3 X56.0984 Y70.539 I0.25 J0.0
G0 Z3.0
G0 X87.733 Y73.5884
G0 Z1.0
G1 Z-0.4
G3 X87.805 Y73.4356 I0.2488 J0.024
G1 X88.39 Y72.8506
G3 X88.5668 Y72.7774 I0.1768 J0.1768
G1 X88.9802
G1 Y72.0962
G3 X89.3316 Y71.2477 I1.2 J0.0
G1 X91.0887 Y69.4905
G3 X91.9373 Y69.139 I0.8486 J0.8485
G1 X103.0885
G3 X103.2385 Y69.089 I0.15 J0.2
G1 X105.2385
G3 X105.4885 Y69.339 I0.0 J0.25
G1 Y71.339
G3 X105.2385 Y71.589 I-0.25 J0.0
G1 X103.2385
G3 X103.0885 Y71.539 I0.0 J-0.25
G1 X92.4344
G1 X91.3802 Y72.5932
G1 Y72.7774
G1 X91.3968
G3 X91.5736 Y72.8506 I0.0 J0.25
G1 X92.1586 Y73.4356
G3 X92.2318 Y73.6124 I-0.1768 J0.1768
G1 Y74.4424
G3 X92.1586 Y74.6192 I-0.25 J0.0
G1 X91.5736 Y75.2042
G3 X91.3968 Y75.2774 I-0.1768 J-0.1768
G1 X88.5668
G3 X88.39 Y75.2042 I0.0 J-0.25
G1 X87.805 Y74.6192
G3 X87.7318 Y74.4424 I0.1768 J-0.1768
G1 Y73.6124
G3 X87.733 Y73.5884 I0.25 J0.0
G0 Z3.0
G0 X88.4697 Y75.3369
G0 Z1.0
G1 Z-0.4
G3 X88.5668 Y75.3173 I0.0971 J0.2304
G1 X91.3968
G3 X91.5469 Y75.3674 I0.0 J0.25
G1 X91.8795
G1 X94.0942 Y73.1527
G3 X94.9427 Y72.8012 I0.8485 J0.8485
G1 X96.8506
G3 X97.0021 Y72.7501 I0.1515 J0.1989
G1 X98.9021
G1 X100.8021
G1 X104.7341
G3 X105.216 Y72.8511 I0.0 J1.2
G1 X105.6852
G3 X105.9352 Y73.1011 I0.0 J0.25
G1 Y73.6583
G3 Y74.3439 I-1.15 J0.3428
G1 Y74.9011
G3 X105.6852 Y75.1511 I-0.25 J0.0
G1 X105.128
G3 X104.4424 I-0.3428 J-1.15
G1 X103.8852
G3 X103.8629 Y75.1501 I0.0 J-0.25
G1 X100.8021
G1 X99.1975
G3 X98.851 Y75.2012 I-0.3465 J-1.1489
G1 X95.4398
G1 X93.225 Y77.4159
G3 X92.3764 Y77.7674 I-0.8485 J-0.8485
G1 X91.5467
G3 X91.3968 Y77.8173 I-0.1499 J-0.2001
G1 X88.5668
G3 X88.39 Y77.7441 I0.0 J-0.25
G1 X87.805 Y77.1591
G3 X87.7318 Y76.9823 I0.1768 J-0.1768
G1 Y76.1523
G3 X87.805 Y75.9755 I0.25 J0.0
G1 X88.39 Y75.3905
G3 X88.4697 Y75.3369 I0.1768 J0.1768
G0 Z3.0
G0 X96.7522 Y75.5341
G0 Z1.0
G1 Z-0.4
G3 X97.0021 Y75.2901 I0.2499 J0.006
G1 X98.9021
G1 X100.8021
G1 X102.4603
G3 X102.5875 Y75.2553 I0.1272 J0.2152
G1 X104.4875
G3 X104.7375 Y75.5053 I0.0 J0.25
G1 Y76.535
G3 Y76.566 I-1.1999 J0.0155
G1 Y77.4053
G3 X104.4875 Y77.6553 I-0.25 J0.0
G1 X104.006
G3 X103.1617 Y77.6901 I-0.4684 J-1.1048
G1 X100.8021
G1 X98.9021
G1 X97.0021
G3 X96.7521 Y77.4401 I0.0 J-0.25
G1 Y75.5401
G3 X96.7522 Y75.5341 I0.25 J0.0
G0 Z3.0
G0 Y89.3955
G0 Z1.0
G1 Z-0.4
G1 X103.152
G3 X103.302 Y89.3455 I0.15 J0.2
G1 X105.302
G3 X105.552 Y89.5955 I0.0 J0.25
G1 Y91.5955
G3 X105.302 Y91.8455 I-0.25 J0.0
G1 X103.302
G3 X103.152 Y91.7955 I0.0 J-0.25
G1 X92.4979
G1 X91.4437 Y92.8497
G1 Y93.0338
G1 X91.4603
G3 X91.6371 Y93.107 I0.0 J0.25
G1 X92.2221 Y93.692
G3 X92.2953 Y93.8688 I-0.1768 J0.1768
G1 Y94.6988
G3 X92.2221 Y94.8756 I-0.25 J0.0
G1 X91.6371 Y95.4606
G3 X91.4603 Y95.5338 I-0.1768 J-0.1768
G1 X88.6303
G3 X88.4535 Y95.4606 I0.0 J-0.25
G1 X87.8685 Y94.8756
G3 X87.7953 Y94.6988 I0.1768 J-0.1768
G1 Y93.8688
G3 X87.8685 Y93.692 I0.25 J0.0
G1 X88.4535 Y93.107
G3 X88.6303 Y93.0338 I0.1768 J0.1768
G1 X89.0437
G1 Y92.3526
G3 X89.3952 Y91.5041 I1.2 J0.0
G1 X91.1523 Y89.747
G3 X92.0008 Y89.3955 I0.8485 J0.8485
G1 X96.7522
G0 Z3.0
G0 X97.0454 Y93.0074
G0 Z1.0
G1 Z-0.4
G3 X97.0656 Y93.0066 I0.0202 J0.2492
G1 X98.9656
G1 X100.8656
G1 X104.7976
G3 X105.2795 Y93.1076 I0.0 J1.2
G1 X105.7487
G3 X105.9987 Y93.3576 I0.0 J0.25
G1 Y93.9148
G3 Y94.6004 I-1.15 J0.3428
G1 Y95.1576
G3 X105.7487 Y95.4076 I-0.25 J0.0
G1 X105.1915
G3 X104.5059 I-0.3428 J-1.15
G1 X103.9487
G3 X103.9264 Y95.4066 I0.0 J-0.25
G1 X100.8656
G1 X99.2606
G3 X98.9145 Y95.4576 I-0.3461 J-1.149
G1 X95.5033
G1 X93.2885 Y97.6723
G3 X92.44 Y98.0238 I-0.8485 J-0.8485
G1 X91.6103
G3 X91.4603 Y98.0738 I-0.15 J-0.2
G1 X88.6303
G3 X88.4535 Y98.0006 I0.0 J-0.25
G1 X87.8685 Y97.4156
G3 X87.7953 Y97.2388 I0.1768 J-0.1768
G1 Y96.4088
G3 X87.8685 Y96.232 I0.25 J0.0
G1 X88.4535 Y95.647
G3 X88.6303 Y95.5738 I0.1768 J0.1768
G1 X91.4603
G3 X91.6103 Y95.6238 I0.0 J0.25
G1 X91.9429
G1 X94.1577 Y93.4091
G3 X95.0062 Y93.0576 I0.8485 J0.8485
G1 X96.9143
G3 X97.0454 Y93.0074 I0.1513 J0.199
G0 Z3.0
G0 X97.0638 Y95.5466
G0 Z1.0
G1 Z-0.4
G3 X97.0656 I0.0018 J0.25
G1 X98.9656
G1 X100.8656
G1 X102.5238
G3 X102.651 Y95.5118 I0.1272 J0.2152
G1 X104.551
G3 X104.801 Y95.7618 I0.0 J0.25
G1 Y96.807
G1 Y97.6618
G3 X104.551 Y97.9118 I-0.25 J0.0
G1 X104.0694
G3 X103.2251 Y97.9466 I-0.4684 J-1.1048
G1 X100.8656
G1 X98.9656
G1 X97.0656
G3 X96.8156 Y97.6966 I0.0 J-0.25
G1 Y95.7966
G3 X97.0638 Y95.5466 I0.25 J0.0
G0 Z3.0
G0 Y109.652
G0 Z1.0
G1 Z-0.4
G1 X103.0885
G3 X103.2385 Y109.602 I0.15 J0.2
G1 X105.2385
G3 X105.4885 Y109.852 I0.0 J0.25
G1 Y111.852
G3 X105.2385 Y112.102 I-0.25 J0.0
G1 X103.2385
G3 X103.0885 Y112.052 I0.0 J-0.25
G1 X92.4344
G1 X91.3802 Y113.1062
G1 Y113.2904
G1 X91.3968
G3 X91.5736 Y113.3636 I0.0 J0.25
G1 X92.1586 Y113.9486
G3 X92.2318 Y114.1254 I-0.1768 J0.1768
G1 Y114.9554
G3 X92.1586 Y115.1322 I-0.25 J0.0
G1 X91.5736 Y115.7172
G3 X91.3968 Y115.7904 I-0.1768 J-0.1768
G1 X88.5668
G3 X88.39 Y115.7172 I0.0 J-0.25
G1 X87.805 Y115.1322
G3 X87.7318 Y114.9554 I0.1768 J-0.1768
G1 Y114.1254
G3 X87.805 Y113.9486 I0.25 J0.0
G1 X88.39 Y113.3636
G3 X88.5668 Y113.2904 I0.1768 J0.1768
G1 X88.9802
G1 Y112.6091
G3 X89.3317 Y111.7606 I1.2 J0.0
G1 X91.0888 Y110.0035
G3 X91.9373 Y109.652 I0.8485 J0.8485
G1 X97.0638
G0 Z3.0
G0 Y113.2631
G0 Z1.0
G1 Z-0.4
G1 X98.9021
G1 X100.8021
G1 X104.7341
G3 X105.2162 Y113.3642 I0.0 J1.2
G1 X105.6852
G3 X105.9352 Y113.6142 I0.0 J0.25
G1 Y114.1714
G3 Y114.857 I-1.15 J0.3428
G1 Y115.4142
G3 X105.6852 Y115.6642 I-0.25 J0.0
G1 X105.128
G3 X104.4424 I-0.3428 J-1.15
G1 X103.8852
G3 X103.8618 Y115.6631 I0.0 J-0.25
G1 X100.8021
G1 X99.1975
G3 X98.851 Y115.7142 I-0.3465 J-1.1489
G1 X95.4398
G1 X93.225 Y117.9289
G3 X92.3765 Y118.2804 I-0.8485 J-0.8485
G1 X91.5468
G3 X91.3968 Y118.3304 I-0.15 J-0.2
G1 X88.5668
G3 X88.39 Y118.2572 I0.0 J-0.25
G1 X87.805 Y117.6722
G3 X87.7318 Y117.4954 I0.1768 J-0.1768
G1 Y116.6654
G3 X87.805 Y116.4886 I0.25 J0.0
G1 X88.39 Y115.9036
G3 X88.5668 Y115.8304 I0.1768 J0.1768
G1 X91.3968
G3 X91.5468 Y115.8804 I0.0 J0.25
G1 X91.8794
G1 X94.0942 Y113.6657
G3 X94.9427 Y113.3142 I0.8485 J0.8485
G1 X96.8506
G3 X97.0021 Y113.2631 I0.1515 J0.1989
G1 X97.0638
G0 Z3.0
G0 Y115.8031
G0 Z1.0
G1 Z-0.4
G1 X98.9021
G1 X100.8021
G1 X102.4603
G3 X102.5875 Y115.7683 I0.1272 J0.2152
G1 X104.4875
G3 X104.7375 Y116.0183 I0.0 J0.25
G1 Y117.048
G3 Y117.079 I-1.1999 J0.0155
G1 Y117.9183
G3 X104.4875 Y118.1683 I-0.25 J0.0
G1 X104.006
G3 X103.1617 Y118.2031 I-0.4684 J-1.1048
G1 X100.8021
G1 X98.9021
G1 X97.0021
G3 X96.7521 Y117.9531 I0.0 J-0.25
G1 Y116.0531
G3 X97.0021 Y115.8031 I0.25 J0.0
G1 X97.0638
G0 Z3.0
G0 X113.7072 Y131.1778
G0 Z1.0
G1 Z-0.4
G3 X113.8912 Y131.0974 I0.1836 J0.1696
G1 X115.8766 Y131.1004
G3 X115.9059 Y131.1005 I0.0112 J2.25
G1 X117.8912 Y131.1035
G3 X118.1408 Y131.3539 I-0.0004 J0.25
G1 X118.1378 Y133.3539
G3 Y133.355 I-0.25 J-0.0004
G1 X118.1343 Y135.6562
G1 X118.5586 Y136.0804
G3 X118.6318 Y136.2572 I-0.1768 J0.1768
G1 Y138.3322
G3 X118.5586 Y138.509 I-0.25 J0.0
G1 X117.096 Y139.9715
G3 X116.9192 Y140.0447 I-0.1768 J-0.1768
G1 X114.8442
G3 X114.6674 Y139.9715 I0.0 J-0.25
G1 X113.205 Y138.509
G3 X113.1318 Y138.3322 I0.1768 J-0.1768
G1 Y136.2572
G3 X113.205 Y136.0804 I0.25 J0.0
G1 X113.6343 Y135.6511
G1 X113.6378 Y133.3481
G3 Y133.347 I0.25 J-0.0007
G1 X113.6408 Y131.347
G3 X113.7072 Y131.1778 I0.25 J0.0004
G0 Z3.0
G0 X119.9646 Y138.2821
G0 Z1.0
G1 Z-0.4
G3 X120.1298 Y138.2197 I0.1652 J0.1876
G1 X121.7898
G3 X121.9666 Y138.2929 I0.0 J0.25
G1 X123.1366 Y139.4629
G3 X123.2098 Y139.6397 I-0.1768 J0.1768
G1 Y141.2997
G3 X123.1366 Y141.4765 I-0.25 J0.0
G1 X121.9666 Y142.6465
G3 X121.7898 Y142.7197 I-0.1768 J-0.1768
G1 X120.1298
G3 X119.953 Y142.6465 I0.0 J-0.25
G1 X118.783 Y141.4765
G3 X118.7098 Y141.2997 I0.1768 J-0.1768
G1 Y139.6397
G3 X118.783 Y139.4629 I0.25 J0.0
G1 X119.953 Y138.2929
G3 X119.9646 Y138.2821 I0.1768 J0.1768
G0 Z3.0
G0 X123.2393 Y143.1354
G0 Z1.0
G1 Z-0.4
G3 X123.4025 Y143.0334 I1.5382 J2.2796
G3 X127.5275 Y145.415 I1.375 J2.3816
G3 X123.4025 Y147.7966 I-2.75 J0.0
G3 X123.2393 Y143.1354 I1.375 J-2.3816
G0 Z3.0
G0 Y122.2728
G0 Z1.0
G1 Z-0.4
G1 X121.6286
G3 X121.3786 Y122.0228 I0.0 J-0.25
G1 Y120.0228
G3 X121.6286 Y119.7728 I0.25 J0.0
G1 X122.1816
G1 X123.9276 Y118.0268
G1 X123.9275 Y113.7942
G1 X123.6275
G3 X123.3775 Y113.5442 I0.0 J-0.25
G1 Y110.5442
G3 X123.6275 Y110.2942 I0.25 J0.0
G1 X126.6275
G3 X126.8775 Y110.5442 I0.0 J0.25
G1 Y113.5442
G3 X126.6275 Y113.7942 I-0.25 J0.0
G1 X126.3275
G1 X126.3276 Y115.8234
G3 Y115.8278 I-0.25 J0.0044
G1 Y117.7278
G1 Y118.2065
G1 Y118.5239
G3 X125.9761 Y119.3724 I-1.2 J0.0
G1 X123.8786 Y121.4699
G1 Y122.0228
G3 X123.6286 Y122.2728 I-0.25 J0.0
G1 X123.2393
G0 Z3.0
G0 Y102.2703
G0 Z1.0
G1 Z-0.4
G1 X121.7874
G3 X121.5374 Y102.0203 I0.0 J-0.25
G1 Y100.0203
G3 X121.7874 Y99.7703 I0.25 J0.0
G1 X122.3403
G1 X123.991 Y98.1196
G1 Y97.95
G1 Y97.4713
G1 Y95.5713
G1 Y93.5377
G1 X123.691
G3 X123.441 Y93.2877 I0.0 J-0.25
G1 Y90.2877
G3 X123.691 Y90.0377 I0.25 J0.0
G1 X126.691
G3 X126.941 Y90.2877 I0.0 J0.25
G1 Y93.2877
G3 X126.691 Y93.5377 I-0.25 J0.0
G1 X126.391
G1 Y95.5713
G1 Y97.4713
G1 Y97.95
G1 Y98.6166
G3 X126.0395 Y99.4651 I-1.2 J0.0
G1 X124.0374 Y101.4673
G1 Y102.0203
G3 X123.7874 Y102.2703 I-0.25 J0.0
G1 X123.2393
G0 Z3.0
G0 Y81.7598
G0 Z1.0
G1 Z-0.4
G1 X121.6286
G3 X121.3786 Y81.5098 I0.0 J-0.25
G1 Y79.5098
G3 X121.6286 Y79.2598 I0.25 J0.0
G1 X122.1815
G1 X123.9275 Y77.5138
G1 Y77.3735
G1 Y75.4735
G1 Y73.2812
G1 X123.6275
G3 X123.3775 Y73.0312 I0.0 J-0.25
G1 Y70.0312
G3 X123.6275 Y69.7812 I0.25 J0.0
G1 X126.6275
G3 X126.8775 Y70.0312 I0.0 J0.25
G1 Y73.0312
G3 X126.6275 Y73.2812 I-0.25 J0.0
G1 X126.3275
G1 Y75.4735
G1 Y77.3735
G1 Y77.6935
G1 Y78.0109
G3 X125.976 Y78.8594 I-1.2 J0.0
G1 X123.8786 Y80.9569
G1 Y81.5098
G3 X123.6286 Y81.7598 I-0.25 J0.0
G1 X123.2393
G0 Z3.0
G0 Y61.6303
G0 Z1.0
G1 Z-0.4
G1 X121.7874
G3 X121.5374 Y61.3803 I0.0 J-0.25
G1 Y59.3803
G3 X121.7874 Y59.1303 I0.25 J0.0
G1 X122.3403
G1 X123.991 Y57.4796
G1 Y57.31
G1 Y57.1488
G1 Y55.2488
G1 Y52.8977
G1 X123.691
G3 X123.441 Y52.6477 I0.0 J-0.25
G1 Y49.6477
G3 X123.691 Y49.3977 I0.25 J0.0
G1 X126.691
G3 X126.941 Y49.6477 I0.0 J0.25
G1 Y52.6477
G3 X126.691 Y52.8977 I-0.25 J0.0
G1 X126.391
G1 Y55.2488
G1 Y57.1488
G1 Y57.31
G1 Y57.9766
G3 X126.0395 Y58.8251 I-1.2 J0.0
G1 X124.0374 Y60.8273
G1 Y61.3803
G3 X123.7874 Y61.6303 I-0.25 J0.0
G1 X123.2393
G0 Z3.0
G0 X105.9803 Y54.6118
G0 Z1.0
G1 Z-0.4
G3 X105.7487 Y54.7676 I-0.2316 J-0.0942
G1 X105.1915
G3 X104.5059 I-0.3428 J-1.15
G1 X103.9487
G3 X103.9264 Y54.7666 I0.0 J-0.25
G1 X100.8656
G1 X99.2606
G3 X98.9145 Y54.8176 I-0.3461 J-1.149
G1 X95.5033
G1 X93.2885 Y57.0323
G3 X92.44 Y57.3838 I-0.8485 J-0.8485
G1 X91.6103
G3 X91.4603 Y57.4338 I-0.15 J-0.2
G1 X88.6303
G3 X88.4535 Y57.3606 I0.0 J-0.25
G1 X87.8685 Y56.7756
G3 X87.7953 Y56.5988 I0.1768 J-0.1768
G1 Y55.7688
G3 X87.8685 Y55.592 I0.25 J0.0
G1 X88.4535 Y55.007
G3 X88.6303 Y54.9338 I0.1768 J0.1768
G1 X91.4603
G3 X91.6103 Y54.9838 I0.0 J0.25
G1 X91.9429
G1 X94.1577 Y52.7691
G3 X95.0062 Y52.4176 I0.8485 J0.8485
G1 X96.9143
G3 X97.0656 Y52.3666 I0.1513 J0.199
G1 X98.9656
G1 X100.8656
G1 X104.7976
G3 X105.2795 Y52.4676 I0.0 J1.2
G1 X105.7487
G3 X105.9987 Y52.7176 I0.0 J0.25
G1 Y53.2748
G3 Y53.9604 I-1.15 J0.3428
G1 Y54.5176
G3 X105.9803 Y54.6118 I-0.25 J0.0
G0 Z3.0
G0 X104.7865 Y55.0378
G0 Z1.0
G1 Z-0.4
G3 X104.801 Y55.1218 I-0.2355 J0.084
G1 Y56.167
G1 Y57.0218
G3 X104.551 Y57.2718 I-0.25 J0.0
G1 X104.0694
G3 X103.2251 Y57.3066 I-0.4684 J-1.1048
G1 X100.8656
G1 X98.9656
G1 X97.0656
G3 X96.8156 Y57.0566 I0.0 J-0.25
G1 Y55.1566
G3 X97.0656 Y54.9066 I0.25 J0.0
G1 X98.9656
G1 X100.8656
G1 X102.5238
G3 X102.651 Y54.8718 I0.1272 J0.2152
G1 X104.551
G3 X104.7865 Y55.0378 I0.0 J0.25
G0 Z3.0
G0 Y51.2055
G0 Z1.0
G1 Z-0.4
G1 X103.302
G3 X103.152 Y51.1555 I0.0 J-0.25
G1 X92.4979
G1 X91.4437 Y52.2097
G1 Y52.3938
G1 X91.4603
G3 X91.6371 Y52.467 I0.0 J0.25
G1 X92.2221 Y53.052
G3 X92.2953 Y53.2288 I-0.1768 J0.1768
G1 Y54.0588
G3 X92.2221 Y54.2356 I-0.25 J0.0
G1 X91.6371 Y54.8206
G3 X91.4603 Y54.8938 I-0.1768 J-0.1768
G1 X88.6303
G3 X88.4535 Y54.8206 I0.0 J-0.25
G1 X87.8685 Y54.2356
G3 X87.7953 Y54.0588 I0.1768 J-0.1768
G1 Y53.2288
G3 X87.8685 Y53.052 I0.25 J0.0
G1 X88.4535 Y52.467
G3 X88.6303 Y52.3938 I0.1768 J0.1768
G1 X89.0437
G1 Y51.7126
G3 X89.3952 Y50.8641 I1.2 J0.0
G1 X91.1523 Y49.107
G3 X92.0008 Y48.7555 I0.8485 J0.8485
G1 X103.152
G3 X103.302 Y48.7055 I0.15 J0.2
G1 X105.302
G3 X105.552 Y48.9555 I0.0 J0.25
G1 Y50.9555
G3 X105.302 Y51.2055 I-0.25 J0.0
G1 X104.7865
G0 Z3.0
G0 X103.6348 Y37.0431
G0 Z1.0
G1 Z-0.4
G3 X103.1616 Y36.9866 I-0.0973 J-1.1961
G1 X100.8021
G1 X98.9021
G1 X97.0021
G3 X96.7521 Y36.7366 I0.0 J-0.25
G1 Y34.8366
G3 X97.0021 Y34.5866 I0.25 J0.0
G1 X98.9021
G1 X100.8021
G1 X102.4603
G3 X102.5875 Y34.5518 I0.1272 J0.2152
G1 X104.4875
G3 X104.7375 Y34.8018 I0.0 J0.25
G1 Y35.847
G1 Y36.7018
G3 X104.4875 Y36.9518 I-0.25 J0.0
G1 X104.0059
G3 X103.6348 Y37.0431 I-0.4684 J-1.1048
G0 Z3.0
G0 Y34.4466
G0 Z1.0
G1 Z-0.4
G1 X100.8021
G1 X99.1971
G3 X98.851 Y34.4976 I-0.3461 J-1.149
G1 X95.4398
G1 X93.225 Y36.7123
G3 X92.3765 Y37.0638 I-0.8485 J-0.8485
G1 X91.5468
G3 X91.3968 Y37.1138 I-0.15 J-0.2
G1 X88.5668
G3 X88.39 Y37.0406 I0.0 J-0.25
G1 X87.805 Y36.4556
G3 X87.7318 Y36.2788 I0.1768 J-0.1768
G1 Y35.4488
G3 X87.805 Y35.272 I0.25 J0.0
G1 X88.39 Y34.687
G3 X88.5668 Y34.6138 I0.1768 J0.1768
G1 X91.3968
G3 X91.5468 Y34.6638 I0.0 J0.25
G1 X91.8794
G1 X94.0942 Y32.4491
G3 X94.9427 Y32.0976 I0.8485 J0.8485
G1 X96.8508
G3 X97.0021 Y32.0466 I0.1513 J0.199
G1 X98.9021
G1 X100.8021
G1 X104.7341
G3 X105.216 Y32.1476 I0.0 J1.2
G1 X105.6852
G3 X105.9352 Y32.3976 I0.0 J0.25
G1 Y32.9548
G3 Y33.6404 I-1.15 J0.3428
G1 Y34.1976
G3 X105.6852 Y34.4476 I-0.25 J0.0
G1 X105.128
G3 X104.4424 I-0.3428 J-1.15
G1 X103.8852
G3 X103.8629 Y34.4466 I0.0 J-0.25
G1 X103.6348
G0 Z3.0
G0 Y30.8855
G0 Z1.0
G1 Z-0.4
G1 X103.2385
G3 X103.0885 Y30.8355 I0.0 J-0.25
G1 X92.4344
G1 X91.3802 Y31.8897
G1 Y32.0738
G1 X91.3968
G3 X91.5736 Y32.147 I0.0 J0.25
G1 X92.1586 Y32.732
G3 X92.2318 Y32.9088 I-0.1768 J0.1768
G1 Y33.7388
G3 X92.1586 Y33.9156 I-0.25 J0.0
G1 X91.5736 Y34.5006
G3 X91.3968 Y34.5738 I-0.1768 J-0.1768
G1 X88.5668
G3 X88.39 Y34.5006 I0.0 J-0.25
G1 X87.805 Y33.9156
G3 X87.7318 Y33.7388 I0.1768 J-0.1768
G1 Y32.9088
G3 X87.805 Y32.732 I0.25 J0.0
G1 X88.39 Y32.147
G3 X88.5668 Y32.0738 I0.1768 J0.1768
G1 X88.9802
G1 Y31.3926
G3 X89.3317 Y30.5441 I1.2 J0.0
G1 X91.0888 Y28.787
G3 X91.9373 Y28.4355 I0.8485 J0.8485
G1 X103.0885
G3 X103.2385 Y28.3855 I0.15 J0.2
G1 X105.2385
G3 X105.4885 Y28.6355 I0.0 J0.25
G1 Y30.6355
G3 X105.2385 Y30.8855 I-0.25 J0.0
G1 X103.6348
G0 Z3.0
G0 X103.5744 Y16.6635
G0 Z1.0
G1 Z-0.4
G3 X103.1934 Y16.6031 I-0.0051 J-1.2
G1 X100.8338
G1 X98.9338
G1 X97.0338
G3 X96.7838 Y16.3531 I0.0 J-0.25
G1 Y14.4531
G3 X97.0338 Y14.2031 I0.25 J0.0
G1 X98.9338
G1 X100.8338
G1 X102.4921
G3 X102.6193 Y14.1683 I0.1272 J0.2152
G1 X104.5193
G3 X104.7693 Y14.4183 I0.0 J0.25
G1 Y15.4635
G1 Y16.3183
G3 X104.5193 Y16.5683 I-0.25 J0.0
G1 X104.0377
G3 X103.5744 Y16.6635 I-0.4684 J-1.1048
G0 Z3.0
G0 X103.8871 Y14.0623
G0 Z1.0
G1 Z-0.4
G3 X103.6837 Y13.9043 I0.0298 J-0.2482
G1 X101.0743 Y13.8817
G3 X100.8339 Y14.0631 I-0.2404 J-0.0686
G1 X99.2293
G3 X98.8828 Y14.1142 I-0.3465 J-1.1489
G1 X95.4714 Y14.1141
G1 X93.2567 Y16.3288
G3 X92.4082 Y16.6803 I-0.8485 J-0.8485
G1 X91.5785
G3 X91.4285 Y16.7303 I-0.15 J-0.2
G1 X88.5985
G3 X88.4217 Y16.6571 I0.0 J-0.25
G1 X87.8367 Y16.0721
G3 X87.7635 Y15.8953 I0.1768 J-0.1768
G1 Y15.0653
G3 X87.8367 Y14.8885 I0.25 J0.0
G1 X88.4217 Y14.3035
G3 X88.5985 Y14.2303 I0.1768 J0.1768
G1 X91.4285
G3 X91.5785 Y14.2803 I0.0 J0.25
G1 X91.9111
G1 X94.1259 Y12.0656
G3 X94.9744 Y11.7141 I0.8485 J0.8485
G1 X96.8825
G3 X97.0339 Y11.6631 I0.1514 J0.199
G1 X98.9339
G1 X100.8339
G3 X101.0819 Y11.8817 I0.0 J0.25
G1 X103.6923 Y11.9043
G3 X103.9169 Y11.7641 I0.2246 J0.1098
G1 X105.7169
G3 X105.9669 Y12.0141 I0.0 J0.25
G1 Y13.8141
G3 X105.7169 Y14.0641 I-0.25 J0.0
G1 X103.9169
G3 X103.8871 Y14.0623 I0.0 J-0.25
G0 Z3.0
G0 Y10.502
G0 Z1.0
G1 Z-0.4
G1 X103.2703
G3 X103.1203 Y10.452 I0.0 J-0.25
G1 X92.4662
G1 X91.4119 Y11.5063
G1 Y11.6904
G1 X91.4285
G3 X91.6053 Y11.7636 I0.0 J0.25
G1 X92.1903 Y12.3486
G3 X92.2635 Y12.5254 I-0.1768 J0.1768
G1 Y13.3554
G3 X92.1903 Y13.5322 I-0.25 J0.0
G1 X91.6053 Y14.1172
G3 X91.4285 Y14.1904 I-0.1768 J-0.1768
G1 X88.5985
G3 X88.4217 Y14.1172 I0.0 J-0.25
G1 X87.8367 Y13.5322
G3 X87.7635 Y13.3554 I0.1768 J-0.1768
G1 Y12.5254
G3 X87.8367 Y12.3486 I0.25 J0.0
G1 X88.4217 Y11.7636
G3 X88.5985 Y11.6904 I0.1768 J0.1768
G1 X89.0119
G1 Y11.0092
G3 X89.3634 Y10.1607 I1.2 J0.0
G1 X91.1206 Y8.4035
G3 X91.9691 Y8.052 I0.8485 J0.8485
G1 X103.1203
G3 X103.2703 Y8.002 I0.15 J0.2
G1 X105.2703
G3 X105.5203 Y8.252 I0.0 J0.25
G1 Y10.252
G3 X105.2703 Y10.502 I-0.25 J0.0
G1 X103.8871
G0 Z3.0
G0 X121.4799 Y18.3998
G0 Z1.0
G1 Z-0.4
G3 X121.708 Y18.2522 I0.2281 J0.1024
G1 X122.2609
G1 X123.9593 Y16.5538
G1 Y16.2865
G1 Y14.3865
G1 Y12.1942
G1 X123.6593
G3 X123.4093 Y11.9442 I0.0 J-0.25
G1 Y8.9442
G3 X123.6593 Y8.6942 I0.25 J0.0
G1 X126.6593
G3 X126.9093 Y8.9442 I0.0 J0.25
G1 Y11.9442
G3 X126.6593 Y12.1942 I-0.25 J0.0
G1 X126.3593
G1 Y14.3865
G1 Y16.2865
G1 Y16.6065
G1 Y17.0509
G3 X126.0078 Y17.8994 I-1.2 J0.0
G1 X123.958 Y19.9493
G1 Y20.5022
G3 X123.708 Y20.7522 I-0.25 J0.0
G1 X121.708
G3 X121.458 Y20.5022 I0.0 J-0.25
G1 Y18.5022
G3 X121.4799 Y18.3998 I0.25 J0.0
G0 Z3.0
G0 X123.5793 Y29.0824
G0 Z1.0
G1 Z-0.4
G3 X123.6275 Y29.0777 I0.0482 J0.2453
G1 X126.6275
G3 X126.8775 Y29.3277 I0.0 J0.25
G1 Y32.3277
G3 X126.6275 Y32.5777 I-0.25 J0.0
G1 X126.3275
G1 X126.3276 Y34.7658
G3 Y34.77 I-0.25 J0.0042
G1 Y36.67
G1 Y36.99
G1 Y37.4662
G3 X125.9761 Y38.3147 I-1.2 J0.0
G1 X123.958 Y40.3328
G1 Y40.8857
G3 X123.708 Y41.1357 I-0.25 J0.0
G1 X121.708
G3 X121.458 Y40.8857 I0.0 J-0.25
G1 Y38.8857
G3 X121.708 Y38.6357 I0.25 J0.0
G1 X122.261
G1 X123.9276 Y36.9691
G1 X123.9275 Y32.5777
G1 X123.6275
G3 X123.3775 Y32.3277 I0.0 J-0.25
G1 Y29.3277
G3 X123.5793 Y29.0824 I0.25 J0.0
G0 Z3.0
G0 X67.6094 Y4.7477
G0 Z1.0
G1 Z-0.4
G3 X63.7125 Y6.0328 I-2.5219 J-1.0965
G3 Y1.2696 I1.375 J-2.3816
G3 X67.8375 Y3.6512 I1.375 J2.3816
G3 X67.6094 Y4.7477 I-2.75 J0.0
G0 Z3.0
G0 X6.197 Y142.9021
G0 Z1.0
G1 Z-0.4
G3 X7.83 Y145.415 I-1.117 J2.5129
G3 X3.705 Y147.7966 I-2.75 J0.0
G3 Y143.0334 I1.375 J-2.3816
G3 X6.197 Y142.9021 I1.375 J2.3816
( cutOut )
S1000
G0 Z3.0
G0 X130.0162 Y150.1768
G0 Z1.0
G1 Z-0.7
G1 X0.0162
G3 X-0.2338 Y149.9268 I0.0 J-0.25
G1 Y-0.0732
G3 X0.0162 Y-0.3232 I0.25 J0.0
G1 X130.0162
G3 X130.2662 Y-0.0732 I0.0 J0.25
G1 Y149.9268
G3 X130.0162 Y150.1768 I-0.25 J0.0
G1 Z-1.4
G1 X0.0162
G3 X-0.2338 Y149.9268 I0.0 J-0.25
G1 Y-0.0732
G3 X0.0162 Y-0.3232 I0.25 J0.0
G1 X130.0162
G3 X130.2662 Y-0.0732 I0.0 J0.25
G1 Y149.9268
G3 X130.0162 Y150.1768 I-0.25 J0.0
G1 Z-2.1
G1 X0.0162
G3 X-0.2338 Y149.9268 I0.0 J-0.25
G1 Y-0.0732
G3 X0.0162 Y-0.3232 I0.25 J0.0
G1 X130.0162
G3 X130.2662 Y-0.0732 I0.0 J0.25
G1 Y149.9268
G3 X130.0162 Y150.1768 I-0.25 J0.0
G0 Z3.0
M5
M30
